!!!!SEGMENT: pl-sa--239-a-vi-43--003_naumann-johann-gottlieb--synphonia-in-d-presto.krn
!!!cenid: 17xx:586
!!!COM: Naumann, Johann Gottlieb
!!!COM-rismid: pe90691
!!!CDT: 1741/04/17-1801/10/23
!!!CNT: German
!!!OPR: Synphonia in D
!!!OTL: Presto
!!!OMV: 003
!!!PDT:
!!!AGN: Secular
!!!SMS-siglum: PL-SA
!!!SMS-shelfmark: 239/A VI 43
!!!SMS-shelfwork: 001-003 M
!!!SMS-variant:
!!!SMS-altvar:
!!!NIFC-rismid: 1001035312
!!!system-decoration: [(s1,s2)][(s3,s4,s5,s6)][(s7,s8,s9)]s10
**kern	**dynam	**kern	**dynam	**kern	**dynam	**kern	**dynam	**kern	**dynam	**kern	**dynam	**kern	**dynam	**kern	**dynam	**kern	**dynam	**kern	**dynam
*part10	*part10	*part9	*part9	*part8	*part8	*part7	*part7	*part6	*part6	*part5	*part5	*part4	*part4	*part3	*part3	*part2	*part2	*part1	*part1
*staff10	*	*staff9	*	*staff8	*	*staff7	*	*staff6	*	*staff5	*	*staff4	*	*staff3	*	*staff2	*	*staff1	*
*Iempty	*	*Iviola	*	*Ivioln	*	*Ivioln	*	*Ituba	*	*Ituba	*	*Iempty	*	*Iempty	*	*Ioboe	*	*Ioboe	*
*I"Fundamento	*	*I"Viola obligato	*	*I"Violino 2do	*	*I"Violino 1mo	*	*I"Tuba 2da in D	*	*I"Tuba 1ma in D	*	*I"Cornu 2do in D	*	*I"Cornu 1mo in D	*	*I"Oboi 2da	*	*I"Oboi 1ma	*
*I'bc	*	*I'vla	*	*I'vl 2	*	*I'vl 1	*	*I'tb 2 in D	*	*I'tb 1 in D	*	*I'cor 2 in D	*	*I'cor 1 in D	*	*I'ob 2	*	*I'ob 1	*
*clefF4	*	*clefC3	*	*clefG2	*	*clefG2	*	*clefG2	*	*clefG2	*	*clefG2	*	*clefG2	*	*clefG2	*	*clefG2	*
*	*	*	*	*	*	*	*	*ITrd-1c-2	*	*ITrd-1c-2	*	*ITrd6c10	*	*ITrd6c10	*	*	*	*	*
*k[f#c#]	*	*k[f#c#]	*	*k[f#c#]	*	*k[f#c#]	*	*k[f#c#]	*	*k[f#c#]	*	*k[f#c#]	*	*k[f#c#]	*	*k[f#c#]	*	*k[f#c#]	*
*D:	*	*D:	*	*D:	*	*D:	*	*D:	*	*D:	*	*D:	*	*D:	*	*D:	*	*D:	*
*M3/8	*	*M3/8	*	*M3/8	*	*M3/8	*	*M3/8	*	*M3/8	*	*M3/8	*	*M3/8	*	*M3/8	*	*M3/8	*
=1	=1	=1	=1	=1	=1	=1	=1	=1	=1	=1	=1	=1	=1	=1	=1	=1	=1	=1	=1
*	*	*	*	*^	*	*	*	*	*	*	*	*	*	*	*	*	*	*	*
!LO:TX:a:t=P:w źródle zaburzona kolejność stron, partia fundamento dla tej części ze strony 26:problem	!	!	!	!	!	!	!	!	!	!	!	!	!	!	!	!	!	!	!	!
!LO:TX:a:t=P:cauda w dół w większości przypadków na środku:problem	!	!LO:TX:a:t=P:cauda w dół w większości przypadków na środku:problem	!	!LO:TX:a:t=P:cauda w dół w większości przypadków na środku:problem	!	!	!LO:TX:a:t=P:cauda w dół w większości przypadków na środku:problem	!	!LO:TX:a:t=P:cauda w dół w większości przypadków na środku:problem	!	!LO:TX:a:t=P:cauda w dół w większości przypadków na środku:problem	!	!LO:TX:a:t=P:cauda w dół w większości przypadków na środku:problem	!	!LO:TX:a:t=P:cauda w dół w większości przypadków na środku:problem	!	!LO:TX:a:t=P:cauda w dół w większości przypadków na środku:problem	!	!LO:TX:a:t=P:cauda w dół w większości przypadków na środku:problem	!
!LO:SIC:o=Preſto:v:t=w źródle napis ten znajduje się po lewej stronie przed kluczem i oznaczeniem metrum	!	!LO:SIC:o=Preſto:v:t=w źródle napis ten znajduje się po lewej stronie przed kluczem i oznaczeniem metrum	!	!LO:SIC:o=Preſto:v:t=w źródle napis ten znajduje się po lewej stronie przed kluczem i oznaczeniem metrum	!	!	!LO:SIC:o=Preſto:v:t=w źródle napis ten znajduje się po lewej stronie przed kluczem i oznaczeniem metrum	!	!LO:SIC:o=Preſto:v:t=w źródle napis ten znajduje się po lewej stronie przed kluczem i oznaczeniem metrum	!	!LO:SIC:o=Preſto:v:t=w źródle napis ten znajduje się po lewej stronie przed kluczem i oznaczeniem metrum	!	!LO:SIC:o=Preſto:v:t=w źródle napis ten znajduje się po lewej stronie przed kluczem i oznaczeniem metrum	!	!LO:SIC:o=Preſto:v:t=w źródle napis ten znajduje się po lewej stronie przed kluczem i oznaczeniem metrum	!	!LO:SIC:o=Preſto:v:t=w źródle napis ten znajduje się po lewej stronie przed kluczem i oznaczeniem metrum	!	!LO:SIC:o=Preſto:v:t=w źródle napis ten znajduje się po lewej stronie przed kluczem i oznaczeniem metrum	!
!	!	!	!	!	!	!	!	!LO:DY:b:rj	!	!	!	!	!	!	!	!	!	!	!	!
8D\L	.	8d\L	.	4a/	4f#\	.	4dd 4d/	f	4f#/	.	4dd\	.	4D/	.	4d\	.	4f#/	.	4dd\	.
8D\	.	8d\	.	.	.	.	.	.	.	.	.	.	.	.	.	.	.	.	.	.
8D\J	.	8d\J	.	8dd\	8ryy	.	8ff#\	.	8r	.	8r	.	8r	.	8r	.	8r	.	8r	.
*	*	*	*	*v	*v	*	*	*	*	*	*	*	*	*	*	*	*	*	*	*
=2	=2	=2	=2	=2	=2	=2	=2	=2	=2	=2	=2	=2	=2	=2	=2	=2	=2	=2	=2
8D\L	.	8d\L	.	4dd 4d/	.	4ff# 4a 4d/	.	4dd\	.	4ff#\	.	4D/	.	4d\	.	4dd\	.	4ff#\	.
8D\	.	8d\	.	.	.	.	.	.	.	.	.	.	.	.	.	.	.	.	.
8D\J	.	8d\J	.	8ff#\	.	8aa\	.	8r	.	8r	.	8r	.	8r	.	8r	.	8r	.
=3	=3	=3	=3	=3	=3	=3	=3	=3	=3	=3	=3	=3	=3	=3	=3	=3	=3	=3	=3
8D\L	.	8d\L	.	8ff#L 8a 8d/	.	8aaL 8a/	.	8d/L	.	8dd\L	.	8D/L	.	8d\L	.	8ff#\L	.	8aa\L	.
8D\	.	8d\	.	8ff# 8a 8d/	.	8ddd/	.	8d/	.	8dd\	.	8D/	.	8d\	.	8ff#\	.	8aa\	.
8D\J	.	8d\J	.	8ggJ 8b 8d/	.	8bb/J	.	8d/J	.	8dd\J	.	8D/J	.	8d\J	.	8gg\J	.	8bb\J	.
=4	=4	=4	=4	=4	=4	=4	=4	=4	=4	=4	=4	=4	=4	=4	=4	=4	=4	=4	=4
4D\	.	4d\	.	4ff# 4a 4d/	.	4aa 4a/	.	4d/	.	4dd\	.	4D/	.	4d\	.	4ff#\	.	4aa\	.
!	!	!	!	!	!LO:DY:b:t=%si:rj	!	!	!	!	!	!	!	!	!	!	!	!	!	!
8r	.	8r	.	8d/	p	8ff#\	.	8r	.	8r	.	8r	.	8r	.	8r	.	8r	.
=5	=5	=5	=5	=5	=5	=5	=5	=5	=5	=5	=5	=5	=5	=5	=5	=5	=5	=5	=5
!LO:SIC:o=3:v:t=z łukiem	!	!LO:SIC:o=3:v:t=z łukiem	!	!	!	!	!	!LO:TX:a:t=7	!	!LO:TX:a:t=7	!	!LO:TX:a:t=4	!	!LO:TX:a:t=4	!	!LO:TX:a:t=3	!	!LO:SIC:o=3:v:t=z łukiem	!
!LO:N:vis=0	!	!LO:N:vis=0	!	!	!	!	!	!LO:N:vis=00	!	!LO:N:vis=00	!	!LO:N:vis=00	!	!LO:N:vis=00	!	!LO:N:vis=0	!	!LO:N:vis=0	!
!	!	!	!	!	!	!	!LO:DY:b:rj	!	!	!	!	!	!	!	!	!	!	!	!
2.r	.	2.r	.	8d/L	.	8ff#\L	p	1.r	.	1.r	.	1.r	.	1.r	.	2.r	.	2.r	.
.	.	.	.	8e/	.	16gg\L	.	.	.	.	.	.	.	.	.	.	.	.	.
.	.	.	.	.	.	16ff#\	.	.	.	.	.	.	.	.	.	.	.	.	.
.	.	.	.	8c#/J	.	16gg\	.	.	.	.	.	.	.	.	.	.	.	.	.
.	.	.	.	.	.	16ee\JJ	.	.	.	.	.	.	.	.	.	.	.	.	.
=6	=6	=6	=6	=6	=6	=6	=6	=6	=6	=6	=6	=6	=6	=6	=6	=6	=6	=6	=6
.	.	.	.	8f#/L	.	4aa\	.	.	.	.	.	.	.	.	.	.	.	.	.
.	.	.	.	8d/	.	.	.	.	.	.	.	.	.	.	.	.	.	.	.
.	.	.	.	8A/J	.	8ff#\	.	.	.	.	.	.	.	.	.	.	.	.	.
=7	=7	=7	=7	=7	=7	=7	=7	=7	=7	=7	=7	=7	=7	=7	=7	=7	=7	=7	=7
4.r	.	4.r	.	8f#/L	.	8ff#\L	.	.	.	.	.	.	.	.	.	4.r	.	4.r	.
.	.	.	.	8e/	.	16gg\L	.	.	.	.	.	.	.	.	.	.	.	.	.
.	.	.	.	.	.	16ff#\	.	.	.	.	.	.	.	.	.	.	.	.	.
.	.	.	.	8c#/J	.	16gg\	.	.	.	.	.	.	.	.	.	.	.	.	.
.	.	.	.	.	.	16ee\JJ	.	.	.	.	.	.	.	.	.	.	.	.	.
=8	=8	=8	=8	=8	=8	=8	=8	=8	=8	=8	=8	=8	=8	=8	=8	=8	=8	=8	=8
8r	.	8r	.	8f#/L	.	4aa\	.	.	.	.	.	.	.	.	.	8r	.	8r	.
8r	.	8r	.	8d/	.	.	.	.	.	.	.	.	.	.	.	8r	.	8r	.
8F#\	.	8d\	.	8a/J	.	8a/	f	.	.	.	.	.	.	.	.	8a/	.	8a/	.
!	!	!	!	!LO:LB:g=original	!	!LO:LB:g=original	!	!	!	!	!	!	!	!	!	!	!	!	!
=9	=9	=9	=9	=9	=9	=9	=9	=9	=9	=9	=9	=9	=9	=9	=9	=9	=9	=9	=9
!	!	!	!	!	!	!	!	!LO:N:vis=0	!	!LO:N:vis=0	!	!	!	!	!	!	!	!	!
8G`>\L	.	8d\L	.	8b\L	.	8b\L	.	2.r	.	2.r	.	8d\L	.	8d\L	.	8b\L	.	8b\L	.
8E`>\	.	8e\	.	16gg\L	.	16gg\L	.	.	.	.	.	8e\J	.	8e\J	.	8gg\	.	8gg\	.
.	.	.	.	16ff#\	.	16ff#\	.	.	.	.	.	.	.	.	.	.	.	.	.
8G`>\J	.	8e\J	.	16ee\	.	16ee\	.	.	.	.	.	8r	.	8r	.	8b\J	.	8b\J	.
.	.	.	.	16dd\JJ	.	16dd\JJ	.	.	.	.	.	.	.	.	.	.	.	.	.
=10	=10	=10	=10	=10	=10	=10	=10	=10	=10	=10	=10	=10	=10	=10	=10	=10	=10	=10	=10
8A`>\L	.	8e\L	.	16cc#\LL	.	16cc#\LL	.	.	.	.	.	8e\L	.	8e\L	.	8cc#\L	.	8cc#\L	.
.	.	.	.	16ee\	.	16ee\	.	.	.	.	.	.	.	.	.	.	.	.	.
8F#`>\	.	8f#\	.	16aa\	.	16aa\	.	.	.	.	.	8f#\J	.	8f#\J	.	8aa\	.	8aa\	.
.	.	.	.	16gg\	.	16gg\	.	.	.	.	.	.	.	.	.	.	.	.	.
8A`>\J	.	8f#\J	.	16ff#\	.	16ff#\	.	.	.	.	.	8r	.	8r	.	8cc#\J	.	8cc#\J	.
.	.	.	.	16ee\JJ	.	16ee\JJ	.	.	.	.	.	.	.	.	.	.	.	.	.
=11	=11	=11	=11	=11	=11	=11	=11	=11	=11	=11	=11	=11	=11	=11	=11	=11	=11	=11	=11
8B\L	.	8f#\L	.	16dd\LL	.	16dd\LL	.	4.r	.	4.r	.	8r	.	8r	.	8dd\L	.	8dd\L	.
.	.	.	.	16ff#\	.	16ff#\	.	.	.	.	.	.	.	.	.	.	.	.	.
8G\	.	8g\	.	16bb\	.	16bb\	.	.	.	.	.	8d\L	.	8d\L	.	8bb\	.	8bb\	.
.	.	.	.	16b\	.	16b\	.	.	.	.	.	.	.	.	.	.	.	.	.
8G#X\J	.	8b\J	.	16ee\	.	16ee\	.	.	.	.	.	8e\J	.	8e\J	.	8dd\J	.	8dd\J	.
.	.	.	.	16dd\JJ	.	16dd\JJ	.	.	.	.	.	.	.	.	.	.	.	.	.
!LO:LB:g=original	!	!	!	!	!	!	!	!	!	!	!	!	!	!	!	!	!	!	!
=12	=12	=12	=12	=12	=12	=12	=12	=12	=12	=12	=12	=12	=12	=12	=12	=12	=12	=12	=12
4A\	.	4e\	.	16cc#\LL	.	16cc#\LL	.	8r	.	8r	.	4A/	.	4e\	.	16cc#\LL	.	16cc#\LL	.
.	.	.	.	16ee\	.	16ee\	.	.	.	.	.	.	.	.	.	16ee\	.	16ee\	.
.	.	.	.	16dd\	.	16dd\	.	8a/L	.	8ee\L	.	.	.	.	.	16dd\	.	16dd\	.
.	.	.	.	16cc#\	.	16cc#\	.	.	.	.	.	.	.	.	.	16cc#\	.	16cc#\	.
8r	.	8r	.	16b\	.	16b\	.	8a/J	.	8ee\J	.	8r	.	8r	.	16b\	.	16b\	.
.	.	.	.	16a\JJ	.	16a\JJ	.	.	.	.	.	.	.	.	.	16a\JJ	.	16a\JJ	.
!	!	!	!	!	!	!	!	!	!	!	!	!	!	!	!	!LO:LB:g=original	!	!	!
=13	=13	=13	=13	=13	=13	=13	=13	=13	=13	=13	=13	=13	=13	=13	=13	=13	=13	=13	=13
*	*	*	*	*^	*	*	*	*	*	*	*	*	*	*	*	*	*	*	*
8D\L	.	8d\L	.	4a/	4f#\	.	4dd 4f#/	.	4f#/	.	4dd\	.	4D/	.	4d\	.	4f#/	.	4dd\	.
8D\	.	8d\	.	.	.	.	.	.	.	.	.	.	.	.	.	.	.	.	.	.
8D\J	.	8d\J	.	8dd\	8ryy	.	8ff#\	.	8r	.	8r	.	8r	.	8r	.	8r	.	8r	.
!	!	!LO:LB:g=original	!	!	!	!	!	!	!	!	!	!	!	!	!	!	!	!	!LO:LB:g=original	!
*	*	*	*	*v	*v	*	*	*	*	*	*	*	*	*	*	*	*	*	*	*
=14	=14	=14	=14	=14	=14	=14	=14	=14	=14	=14	=14	=14	=14	=14	=14	=14	=14	=14	=14
*tremolo	*	*	*	*	*	*	*	*	*	*	*	*	*	*	*	*	*	*	*
8D\L	.	8d\L	.	4dd 4d/	.	4ff# 4a 4d/	.	4dd\	.	4ff#\	.	4D/	.	4d\	.	4dd\	.	4ff#\	.
8D\	.	8d\	.	.	.	.	.	.	.	.	.	.	.	.	.	.	.	.	.
8D\J	.	8d\J	.	8ff#\	.	8aa\	.	8r	.	8r	.	8r	.	8r	.	8r	.	8r	.
=15	=15	=15	=15	=15	=15	=15	=15	=15	=15	=15	=15	=15	=15	=15	=15	=15	=15	=15	=15
8D\L	.	8d\L	.	8ff#L 8a 8d/	.	8aaL 8a/	.	8d/L	.	8dd\L	.	8D/L	.	8d\L	.	8ff#\L	.	8aa\L	.
8D\	.	8d\	.	8ff# 8a 8d/	.	8ddd/	.	8d/	.	8dd\	.	8D/	.	8d\	.	8ff#\	.	8aa\	.
8D\J	.	8d\J	.	8ggJ 8b 8d/	.	8bb/J	.	8d/J	.	8dd\J	.	8D/J	.	8d\J	.	8gg\J	.	8bb\J	.
*Xtremolo	*	*	*	*	*	*	*	*	*	*	*	*	*	*	*	*	*	*	*
=16	=16	=16	=16	=16	=16	=16	=16	=16	=16	=16	=16	=16	=16	=16	=16	=16	=16	=16	=16
4D\	.	4d\	.	4ff# 4a 4d/	.	4aa 4a/	.	4d/	.	4dd\	.	4D/	.	4d\	.	4ff#\	.	4aa\	.
8r	.	8r	.	8d/	.	8ff#\	p	8r	.	8r	.	8r	.	8r	.	8r	.	8r	.
!	!	!	!	!LO:LB:g=original	!	!	!	!	!	!	!	!	!	!	!	!	!	!	!
=17	=17	=17	=17	=17	=17	=17	=17	=17	=17	=17	=17	=17	=17	=17	=17	=17	=17	=17	=17
!LO:TX:a:t=3	!	!LO:SIC:o=3:v:t=z łukiem	!	!	!	!	!	!LO:TX:a:t=7	!	!	!	!LO:TX:a:t=4	!	!LO:TX:a:t=4	!	!LO:SIC:o=3:v:t=z łukiem	!	!LO:SIC:o=3:v:t=z łukiem	!
!LO:N:vis=0	!	!LO:N:vis=0	!	!	!	!	!	!LO:N:vis=00	!	!LO:N:vis=00	!	!LO:N:vis=00	!	!LO:N:vis=00	!	!LO:N:vis=0	!	!LO:N:vis=0	!
2.r	.	2.r	.	8d/L	.	8ff#\L	.	1.r	.	1.r	.	1.r	.	1.r	.	2.r	.	2.r	.
.	.	.	.	8e/	.	16gg\L	.	.	.	.	.	.	.	.	.	.	.	.	.
.	.	.	.	.	.	16ff#\JJ	.	.	.	.	.	.	.	.	.	.	.	.	.
!	!	!	!	!	!	!LO:LB:g=original	!	!	!	!	!	!	!	!	!	!	!	!	!
.	.	.	.	8c#/J	.	16gg\LL	.	.	.	.	.	.	.	.	.	.	.	.	.
.	.	.	.	.	.	16ee\JJ	.	.	.	.	.	.	.	.	.	.	.	.	.
=18	=18	=18	=18	=18	=18	=18	=18	=18	=18	=18	=18	=18	=18	=18	=18	=18	=18	=18	=18
.	.	.	.	8f#/L	.	4aa\	.	.	.	.	.	.	.	.	.	.	.	.	.
.	.	.	.	8d/	.	.	.	.	.	.	.	.	.	.	.	.	.	.	.
.	.	.	.	8A/J	.	8ff#\	.	.	.	.	.	.	.	.	.	.	.	.	.
=19	=19	=19	=19	=19	=19	=19	=19	=19	=19	=19	=19	=19	=19	=19	=19	=19	=19	=19	=19
4.r	.	4.r	.	8d/L	.	8ff#\L	.	.	.	.	.	.	.	.	.	4.r	.	4.r	.
.	.	.	.	8e/	.	16gg\L	.	.	.	.	.	.	.	.	.	.	.	.	.
.	.	.	.	.	.	16ff#\	.	.	.	.	.	.	.	.	.	.	.	.	.
.	.	.	.	8c#/J	.	16gg\	.	.	.	.	.	.	.	.	.	.	.	.	.
.	.	.	.	.	.	16ee\JJ	.	.	.	.	.	.	.	.	.	.	.	.	.
=20	=20	=20	=20	=20	=20	=20	=20	=20	=20	=20	=20	=20	=20	=20	=20	=20	=20	=20	=20
8r	.	8r	.	8f#/L	.	4aa\	.	.	.	.	.	.	.	.	.	8r	.	8r	.
8r	.	8r	.	8d/	.	.	.	.	.	.	.	.	.	.	.	8r	.	8r	.
8F#\	.	8d\	.	8a/J	.	8a/	f	.	.	.	.	.	.	.	.	8a/	.	8a/	.
!	!	!	!	!	!	!	!	!	!	!	!	!	!	!LO:LB:g=original	!	!	!	!	!
=21	=21	=21	=21	=21	=21	=21	=21	=21	=21	=21	=21	=21	=21	=21	=21	=21	=21	=21	=21
!	!	!	!	!	!	!	!	!LO:N:vis=0	!	!LO:N:vis=0	!	!	!	!	!	!	!	!	!
8G\L	.	8d\L	.	8b\L	.	8b\L	.	2.r	.	2.r	.	8d\L	.	8d\L	.	8b\L	.	8b\L	.
8E\	.	8e\	.	16gg\L	.	16gg\L	.	.	.	.	.	8e\J	.	8e\J	.	8gg\	.	8gg\	.
.	.	.	.	16ff#\	.	16ff#\	.	.	.	.	.	.	.	.	.	.	.	.	.
8G\J	.	8e\J	.	16ee\	.	16ee\	.	.	.	.	.	8r	.	8r	.	8b\J	.	8b\J	.
.	.	.	.	16dd\JJ	.	16dd\JJ	.	.	.	.	.	.	.	.	.	.	.	.	.
=22	=22	=22	=22	=22	=22	=22	=22	=22	=22	=22	=22	=22	=22	=22	=22	=22	=22	=22	=22
8A\L	.	8e\L	.	16cc#\LL	.	16cc#\LL	.	.	.	.	.	8e\L	.	8e\L	.	8cc#\L	.	8cc#\L	.
.	.	.	.	16ee\	.	16ee\	.	.	.	.	.	.	.	.	.	.	.	.	.
8F#\	.	8f#\	.	16aa\	.	16aa\	.	.	.	.	.	8f#\J	.	8f#\J	.	8aa\	.	8aa\	.
.	.	.	.	16gg\	.	16gg\	.	.	.	.	.	.	.	.	.	.	.	.	.
8A\J	.	8f#\J	.	16ff#\	.	16ff#\	.	.	.	.	.	8r	.	8r	.	8cc#\J	.	8cc#\J	.
.	.	.	.	16ee\JJ	.	16ee\JJ	.	.	.	.	.	.	.	.	.	.	.	.	.
!	!	!	!	!	!	!	!	!	!	!	!	!LO:LB:g=original	!	!	!	!	!	!	!
=23	=23	=23	=23	=23	=23	=23	=23	=23	=23	=23	=23	=23	=23	=23	=23	=23	=23	=23	=23
8B\L	.	8f#\L	.	16dd\LL	.	16dd\LL	.	4.r	.	4.r	.	8r	.	8r	.	8dd\L	.	8dd\L	.
.	.	.	.	16ff#\	.	16ff#\	.	.	.	.	.	.	.	.	.	.	.	.	.
8G\	.	8g\	.	16bb\	.	16bb\	.	.	.	.	.	8d/L	.	8d\L	.	16bb\L	.	16bb\L	.
.	.	.	.	16b\	.	16b\	.	.	.	.	.	.	.	.	.	16b\	.	16b\	.
8A\J	.	8e\J	.	16dd\	.	16dd\	.	.	.	.	.	8A/J	.	8A\J	.	16dd\	.	16dd\	.
.	.	.	.	16cc#\JJ	.	16cc#\JJ	.	.	.	.	.	.	.	.	.	16cc#\JJ	.	16cc#\JJ	.
=24	=24	=24	=24	=24	=24	=24	=24	=24	=24	=24	=24	=24	=24	=24	=24	=24	=24	=24	=24
8D\L	.	4f#\	.	4dd\	.	4dd\	.	8r	.	8r	.	4F#/	.	4d\	.	4dd\	.	4dd\	.
8F#\	.	.	.	.	.	.	.	8dd\L	.	8ff#\L	.	.	.	.	.	.	.	.	.
8A\J	.	8r	.	8r	.	8r	.	8dd\J	.	8ff#\J	.	8r	.	8r	.	8r	.	8r	.
=25	=25	=25	=25	=25	=25	=25	=25	=25	=25	=25	=25	=25	=25	=25	=25	=25	=25	=25	=25
8D\L	.	8a\L	.	32ff#\LLL	.	32ff#\LLL	.	4dd\	.	4ff#\	.	4d\	.	4f#\	.	32ff#\LLL	.	32ff#\LLL	.
.	.	.	.	32gg\JJ	.	32gg\JJ	.	.	.	.	.	.	.	.	.	(>32gg\JJ	.	32gg\JJ	.
.	.	.	.	8.aa\J	.	8.aa\J	.	.	.	.	.	.	.	.	.	8.aa\)	.	8.aa\J	.
8F#\	.	8a\	.	.	.	.	.	.	.	.	.	.	.	.	.	.	.	.	.
8D\J	.	8a\J	.	8ff#\	.	8ff#\	.	8r	.	8r	.	8r	.	8r	.	8ff#\J	.	8ff#\	.
!	!	!	!	!	!	!LO:LB:g=original	!	!	!	!	!	!	!	!	!	!	!	!	!
=26	=26	=26	=26	=26	=26	=26	=26	=26	=26	=26	=26	=26	=26	=26	=26	=26	=26	=26	=26
8C#/L	.	4a\	.	16ee\LL	.	8ee\L	.	4a/	.	4ee\	.	4A/	.	4a\	.	16ee\LL	.	8ee\L	.
.	.	.	.	16ff#\	.	.	.	.	.	.	.	.	.	.	.	(>16ff#\	.	.	.
8BB/	.	.	.	16dd\	.	(>16ff#\L	.	.	.	.	.	.	.	.	.	16dd\	.	16ff#\L	.
.	.	.	.	16ee\J	.	16dd\	.	.	.	.	.	.	.	.	.	16ee\J)	.	16dd\	.
8AA/J	.	8r	.	8cc#\J	.	16ee\)	.	8r	.	8r	.	8r	.	8r	.	8cc#\J	.	16ee\	.
.	.	.	.	.	.	16cc#\JJ	.	.	.	.	.	.	.	.	.	.	.	16cc#\JJ	.
!LO:LB:g=original	!	!	!	!LO:LB:g=original	!	!	!	!LO:LB:g=original	!	!	!	!	!	!	!	!LO:LB:g=original	!	!	!
=27	=27	=27	=27	=27	=27	=27	=27	=27	=27	=27	=27	=27	=27	=27	=27	=27	=27	=27	=27
8D\L	.	8a\L	.	32ff#\LLL	.	(>32ff#\LLL	.	4dd\	.	4ff#\	.	4d\	.	4f#\	.	(>32ff#\LLL	.	32ff#\LLL	.
.	.	.	.	32gg\JJ	.	32gg\JJ	.	.	.	.	.	.	.	.	.	32gg\JJ	.	32gg\JJ	.
!	!	!	!	!LO:N:vis=16	!	!	!	!	!	!	!	!	!	!	!	!	!	!	!
.	.	.	.	8.aa\	.	8.aa\J)	.	.	.	.	.	.	.	.	.	8.aa\)	.	8.aa\J	.
8F#\	.	8a\	.	.	.	.	.	.	.	.	.	.	.	.	.	.	.	.	.
8D\J	.	8a\J	.	8ff#\J	.	8ff#\	.	8r	.	8r	.	8r	.	8r	.	8ff#\J	.	8ff#\	.
!	!	!	!	!	!	!	!	!	!	!LO:LB:g=original	!	!	!	!	!	!	!	!LO:LB:g=original	!
=28	=28	=28	=28	=28	=28	=28	=28	=28	=28	=28	=28	=28	=28	=28	=28	=28	=28	=28	=28
8C#/L	.	4a\	.	16ee\LL	.	8ee\L	.	4a/	.	4ee\	.	4A/	.	4a\	.	16ee\LL	.	8ee\L	.
.	.	.	.	16ff#\	.	.	.	.	.	.	.	.	.	.	.	(>16ff#\	.	.	.
8BB/	.	.	.	16dd\	.	(>16ff#\L	.	.	.	.	.	.	.	.	.	16dd\)	.	16ff#\L	.
.	.	.	.	16ee\J	.	16dd\	.	.	.	.	.	.	.	.	.	16ee\J	.	(>16dd\	.
8AA/J	.	8r	.	8cc#\J	.	16ee\)	.	8r	.	8r	.	8r	.	8r	.	8cc#\J	.	16ee\)	.
.	.	.	.	.	.	16cc#\JJ	.	.	.	.	.	.	.	.	.	.	.	16cc#\JJ	.
=29	=29	=29	=29	=29	=29	=29	=29	=29	=29	=29	=29	=29	=29	=29	=29	=29	=29	=29	=29
8D/L	.	4a\	.	32ff#\LLL	.	32ff#\LLL	.	4dd\	.	4ff#\	.	4d\	.	4f#\	.	(>32ff#\LLL	.	32ff#\LLL	.
.	.	.	.	(>32gg\JJ	.	32gg\JJ	.	.	.	.	.	.	.	.	.	32gg\JJ	.	(>32gg\JJ	.
!	!	!	!	!	!	!	!	!	!	!	!	!	!	!	!	!	!	!LO:SIC:o=8aa	!
.	.	.	.	8.aa\)	.	8.aa\	.	.	.	.	.	.	.	.	.	8.aa\)	.	8.aa\)	.
8D/	.	.	.	.	.	.	.	.	.	.	.	.	.	.	.	.	.	.	.
8D/J	.	8a\	.	16ff#\Jk	.	16ff#\Jk	.	8r	.	8r	.	8r	.	8r	.	8ff#\J	.	8ff#\J	.
!	!	!	!	!LO:TX:a:t=P:pominięty fragment; takt niepełny:problem	!	!LO:TX:a:t=P:pominięty fragment; takt niepełny:problem	!	!	!	!	!	!	!	!	!	!	!	!	!
.	.	.	.	16ryy	.	16ryy	.	.	.	.	.	.	.	.	.	.	.	.	.
!	!	!LO:LB:g=original	!	!	!	!	!	!	!	!	!	!	!	!	!	!	!	!	!
=30	=30	=30	=30	=30	=30	=30	=30	=30	=30	=30	=30	=30	=30	=30	=30	=30	=30	=30	=30
*tremolo	*	*	*	*	*	*	*	*	*	*	*	*	*	*	*	*	*	*	*
!	!	!	!	!	!	!	!	!LO:SIC:o=3:v:t=z łukiem	!	!	!	!LO:TX:a:t=2	!	!LO:TX:a:t=2	!	!	!	!	!
!	!	!	!	!	!	!	!	!LO:N:vis=0	!	!LO:N:vis=0	!	!LO:N:vis=0	!	!LO:N:vis=0	!	!	!	!	!
8D/L	.	4f#\	.	32dd\LLL	.	32dd\LLL	.	2.r	.	2.r	.	2.r	.	2.r	.	(>32dd\LLL	.	32dd\LLL	.
.	.	.	.	(>32ee\JJ	.	32ee\JJ	.	.	.	.	.	.	.	.	.	32ee\JJ)	.	(>32ee\JJ	.
!	!	!	!	!	!	!	!	!	!	!	!	!	!	!	!	!	!	!LO:SIC:o=8ff#	!
.	.	.	.	8.ff#\)	.	8.ff#\	.	.	.	.	.	.	.	.	.	8.ff#\	.	8.ff#\)	.
8D/	.	.	.	.	.	.	.	.	.	.	.	.	.	.	.	.	.	.	.
8D/J	.	8f#\	.	16dd\Jk	.	16dd\Jk	.	.	.	.	.	.	.	.	.	8dd\J	.	8dd\J	.
!	!	!	!	!LO:TX:a:t=P:pominięty fragment; takt niepełny:problem	!	!LO:TX:a:t=P:pominięty fragment; takt niepełny:problem	!	!	!	!	!	!	!	!	!	!	!	!	!
.	.	.	.	16ryy	.	16ryy	.	.	.	.	.	.	.	.	.	.	.	.	.
*Xtremolo	*	*	*	*	*	*	*	*	*	*	*	*	*	*	*	*	*	*	*
=31	=31	=31	=31	=31	=31	=31	=31	=31	=31	=31	=31	=31	=31	=31	=31	=31	=31	=31	=31
!	!	!	!	!LO:TX:a:t=P:mixed beam:problem	!	!LO:TX:a:t=P:mixed beam:problem	!	!	!	!	!	!	!	!	!	!LO:TX:a:t=P:mixed beam:problem	!	!LO:TX:a:t=P:mixed beam:problem	!
8D/L	.	8f#\L	.	16b\LL	.	16b\LL	.	.	.	.	.	.	.	.	.	16b\LL	.	16b\LL	.
.	.	.	.	16cc#\	.	16cc#\	.	.	.	.	.	.	.	.	.	16cc#\	.	16cc#\	.
8D/	.	8f#\	.	16dd\	.	16dd\	.	.	.	.	.	.	.	.	.	16dd\	.	16dd\	.
.	.	.	.	16f#/	.	16f#/	.	.	.	.	.	.	.	.	.	16f#/	.	(<16f#/	.
8D#X/J	.	8f#\J	.	16b/	.	16b/	.	.	.	.	.	.	.	.	.	16b/	.	16b/	.
.	.	.	.	16a/JJ	.	16a/JJ	.	.	.	.	.	.	.	.	.	16a/JJ	.	16a/JJ)	.
=32	=32	=32	=32	=32	=32	=32	=32	=32	=32	=32	=32	=32	=32	=32	=32	=32	=32	=32	=32
*tremolo	*	*	*	*	*	*	*	*	*	*	*	*	*	*	*	*	*	*	*
.	.	.	.	.	.	.	.	.	.	.	.	.	.	.	.	8qqa/	.	.	.
!	!	!	!	!	!	!	!	!LO:N:vis=1	!	!LO:N:vis=1	!	!	!	!	!	!	!	!	!
8E\L	.	4e\	.	4ee 4g#X/	.	4ee 4g#X/	.	4.r	.	4.r	.	8e\L	.	8e\L	.	4g#X/	.	4ee\	.
8E\	.	.	.	.	.	.	.	.	.	.	.	8e\	.	8e\	.	.	.	.	.
8E\J	.	8r	.	8r	.	8r	.	.	.	.	.	8e\J	.	8e\J	.	8r	.	8r	.
*Xtremolo	*	*	*	*	*	*	*	*	*	*	*	*	*	*	*	*	*	*	*
=33	=33	=33	=33	=33	=33	=33	=33	=33	=33	=33	=33	=33	=33	=33	=33	=33	=33	=33	=33
*	*	*tremolo	*	*	*	*	*	*	*	*	*	*	*	*	*	*	*	*	*
!	!	!	!	!	!	!	!	!	!	!	!	!	!	!	!	!LO:TX:a:t=P:łuki ligaturowe i łuk legatowy poniżej główek nut:problem	!	!	!
4E\	.	16e\LL	.	8r	.	8r	.	8r	.	8r	.	4e\	.	4e\	.	[>4.ee\	.	4.ee\	.
.	.	16e\	.	.	.	.	.	.	.	.	.	.	.	.	.	.	.	.	.
.	.	16e\	.	8gg#X\L	.	8bb\L	.	8ee\L	.	8ee\L	.	.	.	.	.	.	.	.	.
.	.	16e\	.	.	.	.	.	.	.	.	.	.	.	.	.	.	.	.	.
8r	.	16e\	.	8aa\J	.	8ccc#\J	.	8ee\J	.	8ee\J	.	8r	.	8r	.	.	.	.	.
.	.	16e\JJ	.	.	.	.	.	.	.	.	.	.	.	.	.	.	.	.	.
=34	=34	=34	=34	=34	=34	=34	=34	=34	=34	=34	=34	=34	=34	=34	=34	=34	=34	=34	=34
8r	.	16e\LL	.	4bb\	.	4ddd\	.	4ee\	.	4ee\	.	8r	.	8r	.	4.ee\_>	.	4.ee\	.
.	.	16e\	.	.	.	.	.	.	.	.	.	.	.	.	.	.	.	.	.
8G#X\L	.	16e\	.	.	.	.	.	.	.	.	.	8e\L	.	8e\L	.	.	.	.	.
.	.	16e\	.	.	.	.	.	.	.	.	.	.	.	.	.	.	.	.	.
8A\J	.	16e\	.	8aa\	.	8ccc#\	.	8r	.	8r	.	8e\J	.	8e\J	.	.	.	.	.
.	.	16e\JJ	.	.	.	.	.	.	.	.	.	.	.	.	.	.	.	.	.
!	!	!	!	!	!	!LO:LB:g=original	!	!	!	!	!	!	!	!	!	!	!	!	!
=35	=35	=35	=35	=35	=35	=35	=35	=35	=35	=35	=35	=35	=35	=35	=35	=35	=35	=35	=35
4E\	.	16e\LL	.	8gg#X\L	.	8bb\L	.	8r	.	8r	.	4e\	.	4e\	.	4.ee\_>	.	4.ee\	.
.	.	16e\	.	.	.	.	.	.	.	.	.	.	.	.	.	.	.	.	.
.	.	16e\	.	8gg#\	.	8bb\	.	8ee\L	.	8ee\L	.	.	.	.	.	.	.	.	.
.	.	16e\	.	.	.	.	.	.	.	.	.	.	.	.	.	.	.	.	.
8r	.	16e\	.	8aa\J	.	8ccc#\J	.	8ee\J	.	8ee\J	.	8r	.	8r	.	.	.	.	.
.	.	16e\JJ	.	.	.	.	.	.	.	.	.	.	.	.	.	.	.	.	.
=36	=36	=36	=36	=36	=36	=36	=36	=36	=36	=36	=36	=36	=36	=36	=36	=36	=36	=36	=36
8r	.	16e\LL	.	4bb\	.	4ddd\	.	4ee\	.	4ee\	.	8r	.	8r	.	4.ee\_>	.	4.ee\	.
.	.	16e\	.	.	.	.	.	.	.	.	.	.	.	.	.	.	.	.	.
8G#X\L	.	16e\	.	.	.	.	.	.	.	.	.	8e\L	.	8e\L	.	.	.	.	.
.	.	16e\	.	.	.	.	.	.	.	.	.	.	.	.	.	.	.	.	.
8A\J	.	16e\	.	8aa\	.	8ccc#\	.	8r	.	8r	.	8e\J	.	8e\J	.	.	.	.	.
.	.	16e\JJ	.	.	.	.	.	.	.	.	.	.	.	.	.	.	.	.	.
!	!	!	!	!LO:LB:g=original	!	!	!	!	!	!	!	!	!	!	!	!	!	!	!
=37	=37	=37	=37	=37	=37	=37	=37	=37	=37	=37	=37	=37	=37	=37	=37	=37	=37	=37	=37
4E\	.	16e\LL	.	8gg#X\L	.	8bb\L	.	8r	.	8r	.	4e\	.	4e\	.	(>4.ee\]	.	4.ee\	.
.	.	16e\	.	.	.	.	.	.	.	.	.	.	.	.	.	.	.	.	.
.	.	16e\	.	8gg#\	.	8bb\	.	8ee\L	.	8ee\L	.	.	.	.	.	.	.	.	.
.	.	16e\JJ	.	.	.	.	.	.	.	.	.	.	.	.	.	.	.	.	.
*	*	*Xtremolo	*	*	*	*	*	*	*	*	*	*	*	*	*	*	*	*	*
8r	.	16a\LL	.	8aa\J	.	8ccc#\J	.	8ee\J	.	8ee\J	.	8r	.	8r	.	.	.	.	.
.	.	16a\JJ	.	.	.	.	.	.	.	.	.	.	.	.	.	.	.	.	.
!	!	!	!	!	!	!	!	!	!	!	!	!	!	!	!	!LO:LB:g=original	!	!	!
=38	=38	=38	=38	=38	=38	=38	=38	=38	=38	=38	=38	=38	=38	=38	=38	=38	=38	=38	=38
!	!	!	!	!	!	!	!	!	!	!	!	!	!	!	!	!LO:TX:a:t=P:w źródle brak zakończenia łuku:problem	!	!	!
!	!	!	!	!LO:TX:a:t=P:łuki ligaturowe i łuk legatowy poniżej główek nut:problem	!	!	!	!	!	!	!	!	!	!	!	!	!	!	!
8r	.	4.g#X\	.	(>4.bb\	.	4.ddd\	.	4ee\	.	4ee\	.	4e\	.	4e\	.	(<4.bb\)	.	4.ddd\	f
8E\L	.	.	.	.	.	.	.	.	.	.	.	.	.	.	.	.	.	.	.
8E#X\J	.	.	.	.	.	.	.	8r	.	8r	.	8r	.	8r	.	.	.	.	.
!LO:LB:g=original	!	!	!	!	!	!	!	!	!	!	!	!	!	!	!	!	!	!	!
=39	=39	=39	=39	=39	=39	=39	=39	=39	=39	=39	=39	=39	=39	=39	=39	=39	=39	=39	=39
!LO:TX:a:t=P:mixed beam:problem	!	!	!	!	!	!	!	!	!	!	!	!	!	!	!	!	!	!	!
8F#\L	.	8a\L	.	[>4.aa\)	.	4.ccc#\	.	4a/	.	4a/	.	4f#\	.	4f#\	.	[<4.aa\)	.	4.ccc#\	.
8A\	.	8e\	.	.	.	.	.	.	.	.	.	.	.	.	.	.	.	.	.
8BB/J	.	8e\J	.	.	.	.	.	8r	.	8r	.	8r	.	8r	.	.	.	.	.
=40	=40	=40	=40	=40	=40	=40	=40	=40	=40	=40	=40	=40	=40	=40	=40	=40	=40	=40	=40
8D/L	.	4f#\	.	4aa\]	.	4.bb\	.	8r	.	8r	.	8r	.	8r	.	4aa\]	.	4.bb\	.
!	!	!	!	!	!	!	!	!	!LO:DY:b:t=%si:rj	!	!	!	!	!	!	!	!	!	!
8BB/	.	.	.	.	.	.	.	8dd\L	p	8ff#\L	p	8d\L	.	8f#\L	.	.	.	.	.
8E/J	.	8e\	.	8gg#X\	.	.	.	8ee\J	.	8ee\J	.	8e\J	.	8e\J	.	8gg#X\	.	.	.
=41	=41	=41	=41	=41	=41	=41	=41	=41	=41	=41	=41	=41	=41	=41	=41	=41	=41	=41	=41
8AA/L	.	4c#\	.	4aa\	.	4aa\	.	4ee\	.	4ee\	.	4A/	.	4e\	.	4aa\	.	4aa\	.
8C#/	.	.	.	.	.	.	.	.	.	.	.	.	.	.	.	.	.	.	.
8AA/J	.	8r	.	8r	.	8r	.	8r	.	8r	.	8r	.	8r	.	8r	.	8r	.
=42	=42	=42	=42	=42	=42	=42	=42	=42	=42	=42	=42	=42	=42	=42	=42	=42	=42	=42	=42
*	*	*tremolo	*	*	*	*	*	*	*	*	*	*	*	*	*	*	*	*	*
!	!	!	!	!	!	!	!	!	!	!	!	!	!	!	!	!LO:TX:a:t=P:łuki ligaturowe i łuk legatowy poniżej główek nut:problem	!	!	!
!	!	!	!LO:DY:b:rj	!	!	!	!	!	!	!	!	!	!	!	!	!	!LO:DY:b:rj	!	!
4E\	.	16e\LL	f	8r	f	8r	.	8r	.	8r	.	4.r	.	4.r	.	[>4.ee\	p	4.ee\	p
.	.	16e\	.	.	.	.	.	.	.	.	.	.	.	.	.	.	.	.	.
.	.	16e\	.	8gg#X\L	.	8bb\L	.	8ee\L	.	8ee\L	.	.	.	.	.	.	.	.	.
.	.	16e\	.	.	.	.	.	.	.	.	.	.	.	.	.	.	.	.	.
8r	.	16e\	.	8aa\J	.	8ccc#\J	.	8ee\J	.	8ee\J	.	.	.	.	.	.	.	.	.
.	.	16e\JJ	.	.	.	.	.	.	.	.	.	.	.	.	.	.	.	.	.
!	!	!	!	!	!	!	!	!	!	!	!	!	!	!	!	!	!	!LO:LB:g=original	!
=43	=43	=43	=43	=43	=43	=43	=43	=43	=43	=43	=43	=43	=43	=43	=43	=43	=43	=43	=43
!	!	!	!	!	!	!	!	!	!	!	!	!	!LO:DY:b:rj	!	!LO:DY:b:t=%s:rj	!	!	!	!
8r	.	16e\LL	.	4bb\	.	4ddd\	.	4ee\	.	4ee\	.	8r	p	8r	p	4.ee\_>	.	4.ee\	.
.	.	16e\	.	.	.	.	.	.	.	.	.	.	.	.	.	.	.	.	.
8G#X\L	.	16e\	.	.	.	.	.	.	.	.	.	8d\L	.	8e\L	.	.	.	.	.
.	.	16e\	.	.	.	.	.	.	.	.	.	.	.	.	.	.	.	.	.
8A\J	.	16e\	.	8aa\	.	8ccc#\	.	8r	.	8r	.	8e\J	.	8e\J	.	.	.	.	.
.	.	16e\JJ	.	.	.	.	.	.	.	.	.	.	.	.	.	.	.	.	.
!	!	!	!	!	!	!	!	!	!	!	!	!	!	!LO:LB:g=original	!	!	!	!	!
=44	=44	=44	=44	=44	=44	=44	=44	=44	=44	=44	=44	=44	=44	=44	=44	=44	=44	=44	=44
!	!	!	!	!LO:SIC:s=8gg#:v	!	!	!	!	!	!	!	!	!	!	!	!	!	!	!
4E\	.	16e\LL	.	8gg\L	.	8bb\L	.	8r	.	8r	.	4e\	.	4e\	.	4.ee\_>	.	4.ee\	.
.	.	16e\	.	.	.	.	.	.	.	.	.	.	.	.	.	.	.	.	.
!	!	!	!	!LO:SIC:s=8gg#:v	!	!	!	!	!	!	!	!	!	!	!	!	!	!	!
.	.	16e\	.	8gg\	.	8bb\	.	8ee\L	.	8ee\L	.	.	.	.	.	.	.	.	.
.	.	16e\	.	.	.	.	.	.	.	.	.	.	.	.	.	.	.	.	.
8r	.	16e\	.	8aa\J	.	8ccc#\J	.	8ee\J	.	8ee\J	.	8r	.	8r	.	.	.	.	.
.	.	16e\JJ	.	.	.	.	.	.	.	.	.	.	.	.	.	.	.	.	.
=45	=45	=45	=45	=45	=45	=45	=45	=45	=45	=45	=45	=45	=45	=45	=45	=45	=45	=45	=45
8r	.	16e\LL	.	4bb\	.	4ddd\	.	4ee\	.	4ee\	.	8r	.	8r	.	4.ee\_>	.	4.ee\	.
.	.	16e\	.	.	.	.	.	.	.	.	.	.	.	.	.	.	.	.	.
8G#X\L	.	16e\	.	.	.	.	.	.	.	.	.	8e\L	.	8e\L	.	.	.	.	.
.	.	16e\	.	.	.	.	.	.	.	.	.	.	.	.	.	.	.	.	.
8A\J	.	16e\	.	8aa\	.	8ccc#\	.	8r	.	8r	.	8e\J	.	8e\J	.	.	.	.	.
.	.	16e\JJ	.	.	.	.	.	.	.	.	.	.	.	.	.	.	.	.	.
*	*	*Xtremolo	*	*	*	*	*	*	*	*	*	*	*	*	*	*	*	*	*
!	!	!LO:LB:g=original	!	!	!	!	!	!LO:LB:g=original	!	!	!	!LO:LB:g=original	!	!	!	!	!	!	!
=46	=46	=46	=46	=46	=46	=46	=46	=46	=46	=46	=46	=46	=46	=46	=46	=46	=46	=46	=46
!	!	!	!	!	!	!	!	!	!	!	!LO:DY:b:rj	!	!	!	!	!	!	!	!
4E\	.	8e\L	.	8gg#X\L	.	8bb\L	.	8r	.	8r	f	4e\	.	4e\	.	(>4.ee\]	.	4.ee\	.
.	.	8e\	.	8gg#\	.	8bb\	.	8ee\L	.	8ee\L	.	.	.	.	.	.	.	.	.
8r	.	8a\J	.	8aa\J	.	8ccc#\J	.	8ee\J	f	8ee\J	.	8r	.	8r	.	.	.	.	.
!	!	!	!	!	!	!	!	!	!	!LO:LB:g=original	!	!	!	!	!	!	!	!	!
=47	=47	=47	=47	=47	=47	=47	=47	=47	=47	=47	=47	=47	=47	=47	=47	=47	=47	=47	=47
!	!LO:DY:b:rj	!	!LO:DY:b:rj	!	!	!	!	!	!	!	!	!	!LO:DY:b:rj	!	!LO:DY:b:rj	!	!LO:DY:b:rj	!	!LO:DY:b:rj
8r	f	4.g#X\	f	4.bb\	.	4.ddd\	f	4ee\	.	4ee\	.	4e\	f	4e\	f	(>4.bb\)	f	4.ddd\	f
8E\L	.	.	.	.	.	.	.	.	.	.	.	.	.	.	.	.	.	.	.
8E#X\J	.	.	.	.	.	.	.	8r	.	8r	.	8r	.	8r	.	.	.	.	.
=48	=48	=48	=48	=48	=48	=48	=48	=48	=48	=48	=48	=48	=48	=48	=48	=48	=48	=48	=48
*	*	*	*	*tremolo	*	*	*	*	*	*	*	*	*	*	*	*	*	*	*
!LO:TX:a:t=P:mixed beam:problem	!	!	!	!	!	!	!	!	!	!	!	!LO:TX:a:t=P:mixed beam:problem	!	!	!	!	!	!	!
8F#\L	.	8a\L	.	16aa\LL	.	4.ccc#\	.	4a/	.	4a/	.	8f#\L	.	8f#\L	.	[>4.aa\)	.	4.ccc#\	.
.	.	.	.	16aa\	.	.	.	.	.	.	.	.	.	.	.	.	.	.	.
8A\	.	8e\	.	16aa\	.	.	.	.	.	.	.	8e\	.	8e\	.	.	.	.	.
.	.	.	.	16aa\	.	.	.	.	.	.	.	.	.	.	.	.	.	.	.
8C#/J	.	8e\J	.	16aa\	.	.	.	8r	.	8r	.	8A/J	.	8e\J	.	.	.	.	.
.	.	.	.	16aa\JJ	.	.	.	.	.	.	.	.	.	.	.	.	.	.	.
!	!	!	!	!	!	!LO:LB:g=original	!	!	!	!	!	!	!	!	!	!	!	!	!
=49	=49	=49	=49	=49	=49	=49	=49	=49	=49	=49	=49	=49	=49	=49	=49	=49	=49	=49	=49
8D/L	.	4f#\	.	16aa\LL	.	4.bb\	.	8r	.	8r	.	4d\	.	4f#\	.	4aa\]	.	4.bb\	.
.	.	.	.	16aa\	.	.	.	.	.	.	.	.	.	.	.	.	.	.	.
8BB/	.	.	.	16aa\	.	.	.	8dd\L	.	8ff#\L	.	.	.	.	.	.	.	.	.
.	.	.	.	16aa\JJ	.	.	.	.	.	.	.	.	.	.	.	.	.	.	.
*	*	*	*	*Xtremolo	*	*	*	*	*	*	*	*	*	*	*	*	*	*	*
8E/J	.	8e\	.	16gg#X\LL	.	.	.	8ee\J	.	8ee\J	.	8e\	.	8e\	.	8gg#X\	.	.	.
.	.	.	.	16gg#\JJ	.	.	.	.	.	.	.	.	.	.	.	.	.	.	.
!	!	!	!	!LO:LB:g=original	!	!	!	!	!	!	!	!	!	!	!	!	!	!	!
=50	=50	=50	=50	=50	=50	=50	=50	=50	=50	=50	=50	=50	=50	=50	=50	=50	=50	=50	=50
4AA/	.	4e\	.	8aa\L	.	8aa\L	.	4a/	.	4ee\	.	4A/	.	4e\	.	8aa\L	.	8aa\L	.
.	.	.	.	16ee\L	.	16ccc#\L	.	.	.	.	.	.	.	.	.	16ee\L	.	16ccc#\L	.
.	.	.	.	16dd\	.	16bb\	.	.	.	.	.	.	.	.	.	16dd\	.	16bb\	.
8r	.	8r	.	16cc#\	.	16aa\	.	8r	.	8r	.	8r	.	8r	.	16cc#\	.	16aa\	.
.	.	.	.	16b\JJ	.	16gg#X\JJ	.	.	.	.	.	.	.	.	.	16b\JJ	.	16gg#X\JJ	.
!LO:LB:g=original	!	!	!	!	!	!	!	!	!	!	!	!	!	!	!	!	!	!	!
=51	=51	=51	=51	=51	=51	=51	=51	=51	=51	=51	=51	=51	=51	=51	=51	=51	=51	=51	=51
8AA/L	.	8A/L	.	8cc#\	.	8aa\	.	8r	.	8r	.	8r	.	8r	.	8cc#\L	.	8aa\L	.
8C#/	.	8c#/	.	8cc#/L 8e/	.	8aa/L 8cc#/ 8e/	.	8a/L	.	8ee\L	.	8A/L	.	8e\L	.	8cc#\	.	8aa\	.
8E/J	.	8e/J	.	8cc#/J 8e/	.	8aa/J 8cc#/ 8e/	.	8a/J	.	8ee\J	.	8A/J	.	8e\J	.	8cc#\J	.	8aa\J	.
=52	=52	=52	=52	=52	=52	=52	=52	=52	=52	=52	=52	=52	=52	=52	=52	=52	=52	=52	=52
4AA/	.	4A/	.	8cc# 8e/	.	8aa 8cc# 8e/	.	4a/	.	4ee\	.	4A/	.	4e\	.	8cc#\L	.	8aa\L	.
.	.	.	.	16ee\LL	.	16ccc#\LL	.	.	.	.	.	.	.	.	.	16ee\L	.	16ccc#\L	.
.	.	.	.	16dd\	.	16bb\	.	.	.	.	.	.	.	.	.	(>16dd\	.	16bb\	.
8r	.	8r	.	16cc#\	.	16aa\	.	8r	.	8r	.	8r	.	8r	.	16cc#\)	.	16aa\	.
.	.	.	.	16b\JJ	.	16gg#X\JJ	.	.	.	.	.	.	.	.	.	16b\JJ	.	16gg#X\JJ	.
!	!	!	!	!	!	!	!	!	!	!	!	!	!	!	!	!LO:LB:g=original	!	!	!
=53	=53	=53	=53	=53	=53	=53	=53	=53	=53	=53	=53	=53	=53	=53	=53	=53	=53	=53	=53
8AA/L	.	8A/L	.	8cc#\	.	8aa\	.	8r	.	8r	.	8r	.	8r	.	8cc#\L	.	8aa\L	.
8C#/	.	8c#/	.	8cc#/L 8e/	.	8aa/L 8cc#/ 8e/	.	8a/L	.	8aa\L	.	8A/L	.	8e\L	.	8cc#\	.	8aa\	.
8E/J	.	8e/J	.	8cc#/J 8e/	.	8aa/J 8cc#/ 8e/	.	8a/J	.	8aa\J	.	8A/J	.	8e\J	.	8cc#\J	.	8aa\J	.
=54	=54	=54	=54	=54	=54	=54	=54	=54	=54	=54	=54	=54	=54	=54	=54	=54	=54	=54	=54
4AA/	.	4A/	.	4cc#/ 4e/	.	4aa/ 4cc#/ 4e/	.	4a/	.	4aa\	.	4A/	.	4e\	.	4cc#\	.	4aa\	.
8r	.	8r	.	8r	.	8r	.	8r	.	8r	.	8r	.	8r	.	8r	.	8r	.
=55	=55	=55	=55	=55	=55	=55	=55	=55	=55	=55	=55	=55	=55	=55	=55	=55	=55	=55	=55
*	*	*tremolo	*	*	*	*	*	*	*	*	*	*	*	*	*	*	*	*	*
!	!	!	!LO:DY:b:rj	!	!LO:DY:b:t=%s:rj	!	!	!	!	!	!	!	!	!	!	!	!	!	!
4A\	.	16a\LL	fp	4gn/	f	4aa/ 4a/	f	4a/	.	4aa\	.	8r	.	8r	.	[<4.a/	.	4.cc#\	.
.	.	16a\	.	.	.	.	.	.	.	.	.	.	.	.	.	.	.	.	.
!	!	!	!	!	!LO:DY:b:t=%si:rj	!	!	!	!	!	!	!	!	!	!	!	!	!	!
.	.	16a\	.	.	p	.	.	.	.	.	.	8r	.	8r	.	.	.	.	.
.	.	16a\	.	.	.	.	.	.	.	.	.	.	.	.	.	.	.	.	.
!	!	!	!	!	!	!	!LO:DY:b:rj	!	!	!	!	!	!LO:DY:b:t=%s	!	!	!	!	!	!
8r	.	16a\	.	8g/	.	(>8cc#\	p	8r	.	8r	.	8A/	p	8e\	p	.	.	.	.
.	.	16a\JJ	.	.	.	.	.	.	.	.	.	.	.	.	.	.	.	.	.
=56	=56	=56	=56	=56	=56	=56	=56	=56	=56	=56	=56	=56	=56	=56	=56	=56	=56	=56	=56
!	!LO:DY:b:t=%s	!	!	!	!	!	!	!	!	!	!	!	!	!	!	!	!	!	!
4A\	p	16a\LL	.	8f#/L	.	4dd\)	.	4.r	.	4.r	.	8d\	.	8f#\	.	8a/]	.	8dd\	.
.	.	16a\	.	.	.	.	.	.	.	.	.	.	.	.	.	.	.	.	.
.	.	16a\	.	8f#/	.	.	.	.	.	.	.	8r	.	8r	.	8r	.	8r	.
.	.	16a\	.	.	.	.	.	.	.	.	.	.	.	.	.	.	.	.	.
8r	.	16a\	.	8f#/J	.	8r	.	.	.	.	.	8r	.	8r	.	8r	.	8r	.
.	.	16a\JJ	.	.	.	.	.	.	.	.	.	.	.	.	.	.	.	.	.
=57	=57	=57	=57	=57	=57	=57	=57	=57	=57	=57	=57	=57	=57	=57	=57	=57	=57	=57	=57
!	!LO:DY:b:t=%s	!	!	!	!LO:DY:b:t=%s	!	!	!	!	!	!	!	!	!	!	!	!	!	!
4A\	f	16a\LL	.	4f#/	f	4aa 4a/	f	4a/	.	4aa\	.	8r	.	8r	.	4.a/	.	4.dd\	.
.	.	16a\	.	.	.	.	.	.	.	.	.	.	.	.	.	.	.	.	.
.	.	16a\	.	.	.	.	.	.	.	.	.	8r	.	8r	.	.	.	.	.
.	.	16a\	.	.	.	.	.	.	.	.	.	.	.	.	.	.	.	.	.
!	!	!	!	!	!LO:DY:b:t=%s	!	!	!	!	!	!	!	!	!	!	!	!	!	!
8r	.	16a\	.	8f#/	p	8dd\	p	8r	.	8r	.	8d\	.	8f#\	.	.	.	.	.
.	.	16a\JJ	.	.	.	.	.	.	.	.	.	.	.	.	.	.	.	.	.
=58	=58	=58	=58	=58	=58	=58	=58	=58	=58	=58	=58	=58	=58	=58	=58	=58	=58	=58	=58
!	!LO:DY:b:t=%s	!	!	!	!	!	!	!	!	!	!	!	!	!	!	!	!	!	!
4A\	p	16a\LL	.	8c#/L	.	4ee\	.	4.r	.	4.r	.	8A/	.	8e\	.	8a/	.	8ee\	.
.	.	16a\	.	.	.	.	.	.	.	.	.	.	.	.	.	.	.	.	.
.	.	16a\	.	8c#/	.	.	.	.	.	.	.	8r	.	8r	.	8r	.	8r	.
.	.	16a\	.	.	.	.	.	.	.	.	.	.	.	.	.	.	.	.	.
8r	.	16a\	.	8c#/J	.	8r	.	.	.	.	.	8r	.	8r	.	8r	.	8r	.
.	.	16a\JJ	.	.	.	.	.	.	.	.	.	.	.	.	.	.	.	.	.
!	!	!	!	!	!	!	!	!	!	!	!	!	!	!	!	!	!	!LO:LB:g=original	!
=59	=59	=59	=59	=59	=59	=59	=59	=59	=59	=59	=59	=59	=59	=59	=59	=59	=59	=59	=59
!	!LO:DY:b:t=%s	!	!	!	!LO:DY:b:t=%s	!	!	!	!	!	!	!	!	!	!	!	!	!	!
4A\	f	16a\LL	.	4c#/	f	4aa 4a/	f	4a/	.	4aa\	.	8r	.	8r	.	4a/	.	4.ee\	.
.	.	16a\	.	.	.	.	.	.	.	.	.	.	.	.	.	.	.	.	.
.	.	16a\	.	.	.	.	.	.	.	.	.	8r	.	8r	.	.	.	.	.
.	.	16a\	.	.	.	.	.	.	.	.	.	.	.	.	.	.	.	.	.
!	!	!	!	!	!LO:DY:b:t=%s	!	!	!	!	!	!	!	!	!	!	!	!	!	!
8r	.	16a\	.	8c#/	p	8ee 8a/	p	8r	.	8r	.	8A/	f	8e\	f	8cc#/	.	.	.
.	.	16a\JJ	.	.	.	.	.	.	.	.	.	.	.	.	.	.	.	.	.
!	!	!	!	!LO:LB:g=original	!	!LO:LB:g=original	!	!	!	!	!	!	!	!	!	!	!	!	!
=60	=60	=60	=60	=60	=60	=60	=60	=60	=60	=60	=60	=60	=60	=60	=60	=60	=60	=60	=60
4A\	.	16a\LL	.	8d/L	.	8ff#L 8a/	.	4.r	.	4.r	.	8F#/L	.	8d\L	.	8dd\L	.	8ff#\L	.
.	.	16a\	.	.	.	.	.	.	.	.	.	.	.	.	.	.	.	.	.
.	.	16a\	.	8c#/	.	8ee 8a/	.	.	.	.	.	8A/	.	8e\	.	8cc#\	.	8ee\	.
.	.	16a\	.	.	.	.	.	.	.	.	.	.	.	.	.	.	.	.	.
8A\	.	16a\	.	8d/J	.	8ff#J 8a/	.	.	.	.	.	8d/J	.	8f#\J	.	8dd\J	.	8ff#\J	.
.	.	16a\JJ	.	.	.	.	.	.	.	.	.	.	.	.	.	.	.	.	.
=61	=61	=61	=61	=61	=61	=61	=61	=61	=61	=61	=61	=61	=61	=61	=61	=61	=61	=61	=61
8A\L	.	16a\LL	.	8e/L	.	16gg\LL	.	8r	.	8r	.	8A/L	.	8e\L	.	8ee\L	.	8gg\L	.
.	.	16a\	.	.	.	16ee\	.	.	.	.	.	.	.	.	.	.	.	.	.
8A\	.	16a\	.	8d/	.	16ff#\	.	8dd\L	.	8ff#\L	.	8d/	.	8f#\	.	8dd\	.	8ff#\	.
.	.	16a\	.	.	.	16aa\	.	.	.	.	.	.	.	.	.	.	.	.	.
!	!	!	!	!LO:SIC:s=8d:v	!	!	!	!	!	!	!	!	!	!	!	!	!	!	!
8A\J	.	16a\	.	8c#/J	.	16ff#\	.	8dd\J	.	8ff#\J	.	8D/J	.	8f#\J	.	8ff#\J	.	8ddd\J	.
.	.	16a\JJ	.	.	.	16dd\JJ	.	.	.	.	.	.	.	.	.	.	.	.	.
*	*	*Xtremolo	*	*	*	*	*	*	*	*	*	*	*	*	*	*	*	*	*
!	!	!LO:LB:g=original	!	!	!	!	!	!	!	!	!	!	!	!	!	!	!	!	!
=62	=62	=62	=62	=62	=62	=62	=62	=62	=62	=62	=62	=62	=62	=62	=62	=62	=62	=62	=62
*	*	*	*	*	*	*^	*	*	*	*	*	*	*	*	*	*	*	*	*
4A\	.	4a\	.	4c#/	.	4ee/	4a\	.	8a/L	.	8aa\L	.	4A/	.	4e\	.	4ee\	.	4ccc#\	.
.	.	.	.	.	.	.	.	.	8a/	.	8aa\	.	.	.	.	.	.	.	.	.
8r	.	8r	.	8r	.	8r	8ryy	.	8a/J	.	8aa\J	.	8r	.	8r	.	8r	.	8r	.
!	!	!	!	!	!	!	!	!	!	!	!	!	!	!	!LO:LB:g=original	!	!	!	!	!
*	*	*	*	*	*	*v	*v	*	*	*	*	*	*	*	*	*	*	*	*	*
=63	=63	=63	=63	=63	=63	=63	=63	=63	=63	=63	=63	=63	=63	=63	=63	=63	=63	=63	=63
*	*	*tremolo	*	*	*	*	*	*	*	*	*	*	*	*	*	*	*	*	*
!	!	!	!	!	!LO:DY:b:t=%s	!	!LO:DY:b:t=%s	!	!	!	!	!	!	!	!	!	!	!	!
4AA/	.	16A/LL	.	4g/	f	4aa 4a/	f	4a/	.	4aa\	.	8r	.	8r	.	(>4.cc#\	.	[<4.aa\	.
.	.	16A/	.	.	.	.	.	.	.	.	.	.	.	.	.	.	.	.	.
.	.	16A/	.	.	.	.	.	.	.	.	.	8r	.	8r	.	.	.	.	.
.	.	16A/	.	.	.	.	.	.	.	.	.	.	.	.	.	.	.	.	.
!	!	!	!	!	!LO:DY:b:t=%s	!	!	!	!	!	!	!	!LO:DY:b:t=%s	!	!LO:DY:b:t=%si:rj	!	!	!	!
8r	.	16A/	.	8g/	p	8cc#\	p	8r	.	8r	.	8A/	p	8e\	p	.	.	.	.
.	.	16A/JJ	.	.	.	.	.	.	.	.	.	.	.	.	.	.	.	.	.
!	!	!	!	!	!	!	!	!LO:LB:g=original	!	!	!	!	!	!	!	!	!	!	!
=64	=64	=64	=64	=64	=64	=64	=64	=64	=64	=64	=64	=64	=64	=64	=64	=64	=64	=64	=64
!	!LO:DY:b:t=%s.	!	!	!	!	!	!	!	!	!	!	!	!	!	!	!	!	!	!
4AA/	p	16A/LL	.	8f#/L	.	4dd\	.	4.r	.	4.r	.	8d\	.	8f#\	.	8dd\)	.	8aa\]	.
.	.	16A/	.	.	.	.	.	.	.	.	.	.	.	.	.	.	.	.	.
.	.	16A/	.	8f#/	.	.	.	.	.	.	.	8r	.	8r	.	8r	.	8r	.
.	.	16A/	.	.	.	.	.	.	.	.	.	.	.	.	.	.	.	.	.
8r	.	16A/	.	8f#/J	.	8r	.	.	.	.	.	8r	.	8r	.	8r	.	8r	.
.	.	16A/JJ	.	.	.	.	.	.	.	.	.	.	.	.	.	.	.	.	.
!LO:LB:g=original	!	!	!	!	!	!	!	!	!	!	!	!LO:LB:g=original	!	!	!	!	!	!	!
=65	=65	=65	=65	=65	=65	=65	=65	=65	=65	=65	=65	=65	=65	=65	=65	=65	=65	=65	=65
!	!	!	!	!	!LO:DY:b:t=%s	!	!	!	!	!	!	!	!	!	!	!	!	!	!
4AA/	f	16A/LL	.	4f#/	f	4aa 4a/	f	4a/	.	4aa\	.	8r	.	8r	.	(>4.dd\	.	[<4.aa\	.
.	.	16A/	.	.	.	.	.	.	.	.	.	.	.	.	.	.	.	.	.
.	.	16A/	.	.	.	.	.	.	.	.	.	8r	.	8r	.	.	.	.	.
.	.	16A/	.	.	.	.	.	.	.	.	.	.	.	.	.	.	.	.	.
!	!	!	!	!	!LO:DY:b:t=%s	!	!	!	!	!	!	!	!	!	!	!	!	!	!
8r	.	16A/	.	8f#/	p	8dd\	p	8r	.	8r	.	8d\	.	8f#\	.	.	.	.	.
.	.	16A/JJ	.	.	.	.	.	.	.	.	.	.	.	.	.	.	.	.	.
=66	=66	=66	=66	=66	=66	=66	=66	=66	=66	=66	=66	=66	=66	=66	=66	=66	=66	=66	=66
!	!LO:DY:b:t=%s.	!	!	!	!	!	!	!	!	!	!	!	!	!	!	!	!	!	!
4AA/	p	16A/LL	.	8c#/L	.	4ee\	.	4.r	.	4.r	.	8A/	.	8e\	.	8ee\)	.	8aa\]	.
.	.	16A/	.	.	.	.	.	.	.	.	.	.	.	.	.	.	.	.	.
.	.	16A/	.	8c#/	.	.	.	.	.	.	.	8r	.	8r	.	8r	.	8r	.
.	.	16A/	.	.	.	.	.	.	.	.	.	.	.	.	.	.	.	.	.
8r	.	16A/	.	8c#/J	.	8r	.	.	.	.	.	8r	.	8r	.	8r	.	8r	.
.	.	16A/JJ	.	.	.	.	.	.	.	.	.	.	.	.	.	.	.	.	.
!	!	!	!	!	!	!	!	!	!	!LO:LB:g=original	!	!	!	!	!	!LO:LB:g=original	!	!	!
=67	=67	=67	=67	=67	=67	=67	=67	=67	=67	=67	=67	=67	=67	=67	=67	=67	=67	=67	=67
!	!	!	!	!	!LO:DY:b:t=%s:rj	!	!	!	!	!	!	!	!	!	!	!	!	!	!
4AA/	f	16A/LL	.	4c#/	f	4aa 4a/	f	4a/	.	4aa\	.	8r	.	8r	.	4.ee\	.	[<4.aa\	.
.	.	16A/	.	.	.	.	.	.	.	.	.	.	.	.	.	.	.	.	.
.	.	16A/	.	.	.	.	.	.	.	.	.	8r	.	8r	.	.	.	.	.
.	.	16A/	.	.	.	.	.	.	.	.	.	.	.	.	.	.	.	.	.
!	!	!	!	!	!LO:DY:b:t=%s:rj	!	!	!	!	!	!	!	!	!	!LO:DY:b:rj	!	!	!	!
8r	.	16A/	.	8c#/	p	8ee\	p	8r	.	8r	.	8A/	f	8e\	f	.	.	.	.
.	.	16A/JJ	.	.	.	.	.	.	.	.	.	.	.	.	.	.	.	.	.
=68	=68	=68	=68	=68	=68	=68	=68	=68	=68	=68	=68	=68	=68	=68	=68	=68	=68	=68	=68
4AA/	.	16A/LL	.	8d/L	.	8ff#/L	.	4.r	.	4.r	.	8F#/L	.	8d\L	.	8ff#\L	.	8aa\L]	.
.	.	16A/	.	.	.	.	.	.	.	.	.	.	.	.	.	.	.	.	.
!	!	!	!	!	!	!	!	!	!	!	!	!	!	!	!	!	!	!LO:SIC:s=8ee:v	!
.	.	16A/	.	8c#/	.	8ee 8a/	f	.	.	.	.	8A/	.	8e\	.	8cc#\	.	8dd\	.
.	.	16A/	.	.	.	.	.	.	.	.	.	.	.	.	.	.	.	.	.
8AA/	.	16A/	.	8d/J	.	8ff#J 8a/	.	.	.	.	.	8d/J	.	8f#\J	.	8dd\J	.	8ff#\J	.
.	.	16A/JJ	.	.	.	.	.	.	.	.	.	.	.	.	.	.	.	.	.
=69	=69	=69	=69	=69	=69	=69	=69	=69	=69	=69	=69	=69	=69	=69	=69	=69	=69	=69	=69
!	!	!	!	!LO:TX:a:t=P:mixed beam:problem	!	!	!	!	!	!	!	!LO:TX:a:t=P:mixed beam:problem	!	!	!	!	!	!	!
8AA/L	.	16A/LL	.	8e/L	.	16gg\LL	.	8r	.	8r	.	8A\L	.	8e\L	.	8ee\L	.	8gg\L	.
.	.	16A/	.	.	.	16ee\	.	.	.	.	.	.	.	.	.	.	.	.	.
8AA/	.	16A/	.	8d/	.	16ff#\	.	8dd\L	.	8ff#\L	.	8d\	.	8f#\	.	8dd\	.	8ff#\	.
.	.	16A/	.	.	.	16aa\	.	.	.	.	.	.	.	.	.	.	.	.	.
8AA/J	.	16A/	.	8dd\J	.	16ff#\	.	8dd\J	.	8ff#\J	.	8D/J	.	8f#\J	.	8dd\J	.	8ff#\J	.
.	.	16A/JJ	.	.	.	16dd\JJ	.	.	.	.	.	.	.	.	.	.	.	.	.
*	*	*Xtremolo	*	*	*	*	*	*	*	*	*	*	*	*	*	*	*	*	*
=70	=70	=70	=70	=70	=70	=70	=70	=70	=70	=70	=70	=70	=70	=70	=70	=70	=70	=70	=70
!LO:TX:a:t=P:mixed beam:problem	!	!LO:TX:a:t=P:mixed beam:problem	!	!	!	!LO:TX:a:t=P:mixed beam:problem	!	!	!	!	!	!	!	!	!	!	!	!LO:TX:a:t=P:mixed beam:problem	!
8AA/L	.	8A/L	.	16cc#\LL	.	16cc#\LL	.	4a/	.	4aa\	.	4A/	.	4e\	.	8cc#/L	.	8ee\L	.
.	.	.	.	16aa\JJ	.	16aa\	.	.	.	.	.	.	.	.	.	.	.	.	.
16A\L	.	16a\L	.	16a/LL	.	16a/	.	.	.	.	.	.	.	.	.	16a/L	.	16a/L	.
16B\	.	16b\	.	16b/	.	16b/	.	.	.	.	.	.	.	.	.	16b/	.	16b/	.
16A\	.	16a\	.	16a/	.	16a/	.	8r	.	8r	.	8r	.	8r	.	16a/	.	16a/	.
16G\JJ	.	16g\JJ	.	16g/JJ	.	16g/JJ	.	.	.	.	.	.	.	.	.	16g/JJ	.	16g/JJ	.
!	!	!	!	!LO:LB:g=original	!	!LO:LB:g=original	!	!	!	!	!	!	!	!	!	!	!	!	!
=71	=71	=71	=71	=71	=71	=71	=71	=71	=71	=71	=71	=71	=71	=71	=71	=71	=71	=71	=71
!	!	!	!	!	!	!	!	!LO:TX:a:t=2	!	!LO:TX:a:t=2	!	!	!	!	!	!	!	!	!
!	!	!	!	!	!	!	!	!LO:N:vis=0	!	!LO:N:vis=0	!	!	!	!	!	!	!	!	!
8F#\L	.	8f#\L	.	16f#/LL	.	16f#/LL	.	2.r	.	2.r	.	4.r	.	4.r	.	16f#/LL	.	16f#/LL	.
.	.	.	.	16g/	.	16g/	.	.	.	.	.	.	.	.	.	16g/	.	16g/	.
16F#\L	.	16f#\L	.	16f#/	.	16f#/	.	.	.	.	.	.	.	.	.	16f#/	.	16f#/	.
16G\	.	16g\	.	16g/	.	16g/	.	.	.	.	.	.	.	.	.	16g/	.	16g/	.
16F#\	.	16f#\	.	16f#/	.	16f#/	.	.	.	.	.	.	.	.	.	16f#/	.	16f#/	.
16E\JJ	.	16e\JJ	.	16e/JJ	.	16e/JJ	.	.	.	.	.	.	.	.	.	16e/JJ	.	16e/JJ	.
=72	=72	=72	=72	=72	=72	=72	=72	=72	=72	=72	=72	=72	=72	=72	=72	=72	=72	=72	=72
16D\LL	.	16d\LL	.	16d/LL	.	16d/LL	.	.	.	.	.	8D/L	.	8d\L	.	16d/LL	.	16d/LL	.
16E\	.	16e\	.	16e/	.	16e/	.	.	.	.	.	.	.	.	.	16e/	.	16e/	.
16F#\	.	16f#\	.	16f#/	.	16f#/	.	.	.	.	.	8F#/	.	8f#\	.	16f#/	.	16f#/	.
16G\	.	16g\	.	16g/	.	16g/	.	.	.	.	.	.	.	.	.	16g/	.	16g/JJ	.
!	!	!	!	!	!	!	!	!	!	!	!	!	!	!	!	!	!	!LO:LB:g=original	!
16A\	.	16a\	.	16a/	.	16a/	.	.	.	.	.	8A/J	.	8a\J	.	16a/	.	16a/LL	.
16F#\JJ	.	16f#\JJ	.	16f#/JJ	.	16f#/JJ	.	.	.	.	.	.	.	.	.	16f#/JJ	.	16f#/JJ	.
=73	=73	=73	=73	=73	=73	=73	=73	=73	=73	=73	=73	=73	=73	=73	=73	=73	=73	=73	=73
*	*	*	*	*^	*	*	*	*	*	*	*	*	*	*	*	*	*	*	*
*tremolo	*	*	*	*	*	*	*	*	*	*	*	*	*	*	*	*	*	*	*	*
8D\L	.	8d\L	.	4a/	8f#\	.	4dd 4d/	.	4f#/	.	4dd\	.	4D/	.	4d\	.	4d/	.	4d/	.
8D\	.	8d\	.	.	4ryy	.	.	.	.	.	.	.	.	.	.	.	.	.	.	.
!	!	!	!	!LO:N:vis=4	!	!	!	!	!	!	!	!	!	!	!	!	!	!	!	!
8D\J	.	8d\J	.	8dd\	.	.	8ff#\	.	8r	.	8r	.	8r	.	8r	.	8dd\	.	8ff#\	.
*	*	*	*	*v	*v	*	*	*	*	*	*	*	*	*	*	*	*	*	*	*
=74	=74	=74	=74	=74	=74	=74	=74	=74	=74	=74	=74	=74	=74	=74	=74	=74	=74	=74	=74
8D\L	.	8d\L	.	4dd 4d/	.	4ff# 4a/	.	4dd\	.	4ff#\	.	4D/	.	4d\	.	4dd\	.	4ff#\	.
8D\	.	8d\	.	.	.	.	.	.	.	.	.	.	.	.	.	.	.	.	.
8D\J	.	8d\J	.	8ff#\	.	8aa\	.	8r	.	8r	.	8r	.	8r	.	8ff#\	.	8aa\	.
!	!	!LO:LB:g=original	!	!	!	!	!	!	!	!	!	!	!	!	!	!	!	!	!
=75	=75	=75	=75	=75	=75	=75	=75	=75	=75	=75	=75	=75	=75	=75	=75	=75	=75	=75	=75
8D\L	.	8d\L	.	8ff#L 8a 8d/	.	8aaL 8a/	.	8dd\L	.	8dd\L	.	8D/L	.	8d\L	.	8ff#\L	.	8aa\L	.
8D\	.	8d\	.	8ff# 8a 8d/	.	8ddd/	.	8dd\	.	8dd\	.	8D/	.	8d\	.	8ff#\	.	8aa\	.
8D\J	.	8d\J	.	8ggJ 8b 8d/	.	8bbJ 8b/	.	8dd\J	.	8dd\J	.	8D/J	.	8d\J	.	8gg\J	.	8bb\J	.
=76	=76	=76	=76	=76	=76	=76	=76	=76	=76	=76	=76	=76	=76	=76	=76	=76	=76	=76	=76
8D\L	.	4d\	.	4ff# 4a 4d/	.	4aa 4a/	.	4dd\	.	4dd\	.	4D/	.	4d\	.	4ff#\	.	4aa\	.
8D\	.	.	.	.	.	.	.	.	.	.	.	.	.	.	.	.	.	.	.
!	!	!	!	!	!LO:DY:b:t=%s:rj	!	!	!	!	!	!	!	!	!	!	!	!	!	!
8D\J	.	8r	.	8d/	p	8ff#\	p	8r	.	8r	.	8r	.	8r	.	8r	.	8r	.
*Xtremolo	*	*	*	*	*	*	*	*	*	*	*	*	*	*	*	*	*	*	*
!LO:LB:g=original	!	!	!	!	!	!	!	!	!	!	!	!	!	!	!	!	!	!	!
=77	=77	=77	=77	=77	=77	=77	=77	=77	=77	=77	=77	=77	=77	=77	=77	=77	=77	=77	=77
!LO:SIC:o=3:v:t=z łukiem	!	!LO:SIC:o=3:v:t=z łukiem	!	!	!	!	!	!LO:TX:a:t=7	!	!LO:TX:a:t=7	!	!LO:TX:a:t=4	!	!LO:TX:a:t=4	!	!LO:SIC:o=3:v:t=z łukiem	!	!LO:TX:a:t=3	!
!LO:N:vis=0	!	!LO:N:vis=0	!	!	!	!	!	!LO:N:vis=00	!	!LO:N:vis=00	!	!LO:N:vis=00	!	!LO:N:vis=00	!	!LO:N:vis=0	!	!LO:N:vis=0	!
2.r	.	2.r	.	8d/L	.	8ff#\L	.	1.r	.	1.r	.	1.r	.	1.r	.	2.r	.	2.r	.
.	.	.	.	8e/	.	16gg\L	.	.	.	.	.	.	.	.	.	.	.	.	.
.	.	.	.	.	.	16ff#\	.	.	.	.	.	.	.	.	.	.	.	.	.
.	.	.	.	8c#/J	.	16gg\	.	.	.	.	.	.	.	.	.	.	.	.	.
.	.	.	.	.	.	16ee\JJ	.	.	.	.	.	.	.	.	.	.	.	.	.
=78	=78	=78	=78	=78	=78	=78	=78	=78	=78	=78	=78	=78	=78	=78	=78	=78	=78	=78	=78
.	.	.	.	8f#/L	.	4aa\	.	.	.	.	.	.	.	.	.	.	.	.	.
.	.	.	.	8d/	.	.	.	.	.	.	.	.	.	.	.	.	.	.	.
.	.	.	.	8A/J	.	8ff#\	.	.	.	.	.	.	.	.	.	.	.	.	.
=79	=79	=79	=79	=79	=79	=79	=79	=79	=79	=79	=79	=79	=79	=79	=79	=79	=79	=79	=79
4.r	.	4.r	.	8d/L	.	8ff#\L	.	.	.	.	.	.	.	.	.	4.r	.	4.r	.
.	.	.	.	8e/	.	16gg\L	.	.	.	.	.	.	.	.	.	.	.	.	.
.	.	.	.	.	.	16ff#\	.	.	.	.	.	.	.	.	.	.	.	.	.
.	.	.	.	8c#/J	.	16gg\	.	.	.	.	.	.	.	.	.	.	.	.	.
.	.	.	.	.	.	16ee\JJ	.	.	.	.	.	.	.	.	.	.	.	.	.
!	!	!	!	!LO:LB:g=original	!	!	!	!	!	!	!	!	!	!	!	!LO:LB:g=original	!	!	!
=80	=80	=80	=80	=80	=80	=80	=80	=80	=80	=80	=80	=80	=80	=80	=80	=80	=80	=80	=80
8r	.	8r	.	8f#/L	.	4aa\	.	.	.	.	.	.	.	.	.	8r	.	8r	.
8r	.	8r	.	8d/	.	.	.	.	.	.	.	.	.	.	.	8r	.	8r	.
8F#\	.	8d\	.	8a/J	f	8a/	f	.	.	.	.	.	.	.	.	8a/	.	8a/	.
!	!	!	!	!	!	!LO:LB:g=original	!	!	!	!	!	!	!	!	!	!	!	!	!
=81	=81	=81	=81	=81	=81	=81	=81	=81	=81	=81	=81	=81	=81	=81	=81	=81	=81	=81	=81
!	!	!	!	!	!	!	!	!LO:N:vis=0	!	!LO:N:vis=0	!	!	!	!	!	!	!	!	!
8G\L	.	8d\L	.	8b\L	.	8b\L	.	2.r	.	2.r	.	8d\L	.	8d\L	.	8b\L	.	8b\L	.
8E\	.	8e\	.	16gg\L	.	16gg\L	.	.	.	.	.	8e\J	.	8e\J	.	8gg\	.	8gg\	.
.	.	.	.	16ff#\	.	16ff#\	.	.	.	.	.	.	.	.	.	.	.	.	.
8G\J	.	8e\J	.	16ee\	.	16ee\	.	.	.	.	.	8r	.	8r	.	8b\J	.	8b\J	.
.	.	.	.	16dd\JJ	.	16dd\JJ	.	.	.	.	.	.	.	.	.	.	.	.	.
=82	=82	=82	=82	=82	=82	=82	=82	=82	=82	=82	=82	=82	=82	=82	=82	=82	=82	=82	=82
8A\L	.	8e\L	.	16cc#\LL	.	16cc#\LL	.	.	.	.	.	8e\L	.	8e\L	.	8cc#\L	.	8cc#\L	.
.	.	.	.	16ee\	.	16ee\	.	.	.	.	.	.	.	.	.	.	.	.	.
8F#\	.	8f#\	.	16aa\	.	16aa\	.	.	.	.	.	8f#\J	.	8f#\J	.	8aa\	.	8aa\	.
.	.	.	.	16gg\	.	16gg\	.	.	.	.	.	.	.	.	.	.	.	.	.
8A\J	.	8f#\J	.	16ff#\	.	16ff#\	.	.	.	.	.	8r	.	8r	.	8cc#\J	.	8cc#\J	.
.	.	.	.	16ee\JJ	.	16ee\JJ	.	.	.	.	.	.	.	.	.	.	.	.	.
=83	=83	=83	=83	=83	=83	=83	=83	=83	=83	=83	=83	=83	=83	=83	=83	=83	=83	=83	=83
8B\L	.	8f#\L	.	16dd\LL	.	16dd\LL	.	4.r	.	4.r	.	8r	.	8r	.	8dd\L	.	8dd\L	.
.	.	.	.	16ff#\	.	16ff#\	.	.	.	.	.	.	.	.	.	.	.	.	.
8G\	.	8g\	.	16bb\	.	16bb\	.	.	.	.	.	8d\L	.	8d\L	.	8bb\	.	8bb\	.
.	.	.	.	16b\	.	16b\	.	.	.	.	.	.	.	.	.	.	.	.	.
8G#X\J	.	8b\J	.	16ee\	.	16ee\	.	.	.	.	.	8e\J	.	8e\J	.	8dd\J	.	8dd\J	.
.	.	.	.	16dd\JJ	.	16dd\JJ	.	.	.	.	.	.	.	.	.	.	.	.	.
!	!	!	!	!	!	!	!	!	!	!	!	!	!	!LO:LB:g=original	!	!	!	!	!
=84	=84	=84	=84	=84	=84	=84	=84	=84	=84	=84	=84	=84	=84	=84	=84	=84	=84	=84	=84
4A\	.	4e\	.	16cc#\LL	.	16cc#\LL	.	8r	.	8r	.	4A/	.	4e\	.	16cc#\LL	.	16cc#\LL	.
.	.	.	.	16ee\	.	16ee\	.	.	.	.	.	.	.	.	.	16ee\	.	16ee\	.
.	.	.	.	16dd\	.	16dd\	.	8a/L	.	8ee\L	.	.	.	.	.	16dd\	.	16dd\	.
.	.	.	.	16cc#\	.	16cc#\	.	.	.	.	.	.	.	.	.	16cc#\	.	16cc#\	.
8r	.	8r	.	16b\	.	16b\	.	8a/J	.	8ee\J	.	8r	.	8r	.	16b\	.	16b\	.
.	.	.	.	16a\JJ	.	16a\JJ	.	.	.	.	.	.	.	.	.	16a\JJ	.	16a\JJ	.
=85	=85	=85	=85	=85	=85	=85	=85	=85	=85	=85	=85	=85	=85	=85	=85	=85	=85	=85	=85
*	*	*	*	*^	*	*	*	*	*	*	*	*	*	*	*	*	*	*	*
8D/L	.	8d\L	.	4a/	4f#\	.	4dd 4d/	.	4f#/	.	4dd\	.	4D/	.	4d\	.	4f#/	.	4dd\	.
8D/	.	8d\	.	.	.	.	.	.	.	.	.	.	.	.	.	.	.	.	.	.
8D/J	.	8d\J	.	8dd\	8ryy	.	8ff#\	.	8r	.	8r	.	8r	.	8r	.	8dd\	.	8ff#\	.
*	*	*	*	*v	*v	*	*	*	*	*	*	*	*	*	*	*	*	*	*	*
=86	=86	=86	=86	=86	=86	=86	=86	=86	=86	=86	=86	=86	=86	=86	=86	=86	=86	=86	=86
*tremolo	*	*	*	*	*	*	*	*	*	*	*	*	*	*	*	*	*	*	*
8D/L	.	8d\L	.	4dd 4d/	.	4ff# 4a 4d/	.	4dd\	.	4ff#\	.	4D/	.	4d\	.	4dd\	.	4ff#\	.
8D/	.	8d\	.	.	.	.	.	.	.	.	.	.	.	.	.	.	.	.	.
8D/J	.	8d\J	.	8ff#\	.	8aa\	.	8r	.	8r	.	8r	.	8r	.	8ff#\	.	8aa\	.
=87	=87	=87	=87	=87	=87	=87	=87	=87	=87	=87	=87	=87	=87	=87	=87	=87	=87	=87	=87
8D/L	.	8d\L	.	8ff#\L	.	8aaL 8a/	.	8dd\L	.	8dd\L	.	8D/L	.	8d\L	.	8ff#\L	.	8aa\L	.
8D/	.	8d\	.	8ff#\	.	8ddd/	.	8dd\	.	8dd\	.	8D/	.	8d\	.	8ff#\	.	8aa\	.
8D/J	.	8d\J	.	8gg\J	.	8bbJ 8b/	.	8dd\J	.	8dd\J	.	8D/J	.	8d\J	.	8gg\J	.	8bb\J	.
*Xtremolo	*	*	*	*	*	*	*	*	*	*	*	*	*	*	*	*	*	*	*
!	!	!	!	!	!	!	!	!	!	!	!	!LO:LB:g=original	!	!	!	!	!	!LO:LB:g=original	!
=88	=88	=88	=88	=88	=88	=88	=88	=88	=88	=88	=88	=88	=88	=88	=88	=88	=88	=88	=88
4D/	.	4d\	.	4ff#\	.	4aa 4a/	.	4dd\	.	4dd\	.	4D/	.	4d\	.	4ff#\	.	4aa\	.
!	!	!	!	!	!	!	!	!	!	!	!	!	!	!	!	!	!	!	!
8r	.	8r	.	8d/	p	8ff#\	p	8r	.	8r	.	8r	.	8r	.	8r	.	8r	.
!	!	!	!	!LO:LB:g=original	!	!	!	!	!	!	!	!	!	!	!	!	!	!	!
=89	=89	=89	=89	=89	=89	=89	=89	=89	=89	=89	=89	=89	=89	=89	=89	=89	=89	=89	=89
!LO:SIC:o=3:v:t=z łukiem	!	!LO:SIC:o=3:v:t=z łukiem	!	!	!	!	!	!LO:TX:a:t=8	!	!LO:TX:a:t=8	!	!LO:TX:a:t=4	!	!LO:TX:a:t=4	!	!LO:SIC:o=3:v:t=z łukiem	!	!LO:TX:a:t=3	!
!LO:N:vis=0	!	!LO:N:vis=0	!	!	!	!	!	!LO:N:vis=00	!	!LO:N:vis=00	!	!LO:N:vis=00	!	!LO:N:vis=00	!	!LO:N:vis=0	!	!LO:N:vis=0	!
2.r	.	2.r	.	8d/L	.	8ff#\L	.	1.r	.	1.r	.	1.r	.	1.r	.	2.r	.	2.r	.
.	.	.	.	8e/	.	16gg\L	.	.	.	.	.	.	.	.	.	.	.	.	.
.	.	.	.	.	.	16ff#\	.	.	.	.	.	.	.	.	.	.	.	.	.
.	.	.	.	8c#/J	.	16gg\	.	.	.	.	.	.	.	.	.	.	.	.	.
.	.	.	.	.	.	16ee\JJ	.	.	.	.	.	.	.	.	.	.	.	.	.
=90	=90	=90	=90	=90	=90	=90	=90	=90	=90	=90	=90	=90	=90	=90	=90	=90	=90	=90	=90
.	.	.	.	8f#/L	.	4aa\	.	.	.	.	.	.	.	.	.	.	.	.	.
.	.	.	.	8d/	.	.	.	.	.	.	.	.	.	.	.	.	.	.	.
.	.	.	.	8A/J	.	8ff#\	.	.	.	.	.	.	.	.	.	.	.	.	.
!	!	!	!	!	!	!LO:LB:g=original	!	!	!	!	!	!	!	!	!	!	!	!	!
=91	=91	=91	=91	=91	=91	=91	=91	=91	=91	=91	=91	=91	=91	=91	=91	=91	=91	=91	=91
4.r	.	4.r	.	8d/L	.	8ff#\L	.	.	.	.	.	.	.	.	.	4.r	.	4.r	.
.	.	.	.	8e/	.	16gg\L	.	.	.	.	.	.	.	.	.	.	.	.	.
.	.	.	.	.	.	16ff#\	.	.	.	.	.	.	.	.	.	.	.	.	.
.	.	.	.	8c#/J	.	16gg\	.	.	.	.	.	.	.	.	.	.	.	.	.
.	.	.	.	.	.	16ee\JJ	.	.	.	.	.	.	.	.	.	.	.	.	.
=92	=92	=92	=92	=92	=92	=92	=92	=92	=92	=92	=92	=92	=92	=92	=92	=92	=92	=92	=92
8r	.	8r	.	8f#/L	.	4aa\	.	.	.	.	.	.	.	.	.	8r	.	8r	.
8r	.	8r	.	8d/	.	.	.	.	.	.	.	.	.	.	.	8r	.	8r	.
8F#\	.	8d\	.	8a/J	f	8a/	f	.	.	.	.	.	.	.	.	8a/	.	8a/	.
!	!	!LO:LB:g=original	!	!	!	!	!	!	!	!	!	!	!	!	!	!	!	!	!
=93	=93	=93	=93	=93	=93	=93	=93	=93	=93	=93	=93	=93	=93	=93	=93	=93	=93	=93	=93
!	!	!	!	!	!	!	!	!LO:N:vis=00	!	!LO:N:vis=00	!	!	!	!	!	!	!	!	!
8G\L	.	8d\L	.	8b\L	.	8b\L	.	1.r	.	1.r	.	8d\L	.	8d\L	.	8b\	.	8b\L	.
8E\	.	8e\	.	16gg\L	.	16gg\L	.	.	.	.	.	8e\J	.	8e\J	.	16gg\LL	.	16gg\L	.
.	.	.	.	16ff#\	.	16ff#\	.	.	.	.	.	.	.	.	.	16ff#\JJ	.	16ff#\	.
!	!	!	!	!	!	!	!	!	!	!	!	!	!	!	!	!LO:LB:g=original	!	!	!
8G\J	.	8e\J	.	16ee\	.	16ee\	.	.	.	.	.	8r	.	8r	.	16ee\LL	.	16ee\	.
.	.	.	.	16dd\JJ	.	16dd\JJ	.	.	.	.	.	.	.	.	.	16dd\JJ	.	16dd\JJ	.
!LO:LB:g=original	!	!	!	!	!	!	!	!	!	!	!	!	!	!	!	!	!	!	!
=94	=94	=94	=94	=94	=94	=94	=94	=94	=94	=94	=94	=94	=94	=94	=94	=94	=94	=94	=94
8A\L	.	8e\L	.	16cc#\LL	.	16cc#\LL	.	.	.	.	.	8e\L	.	8e\L	.	16cc#\LL	.	16cc#\LL	.
.	.	.	.	16ee\	.	16ee\	.	.	.	.	.	.	.	.	.	16ee\	.	16ee\	.
8F#\	.	8f#\	.	16aa\	.	16aa\	.	.	.	.	.	8f#\J	.	8f#\J	.	16aa\	.	16aa\	.
.	.	.	.	16gg\	.	16gg\	.	.	.	.	.	.	.	.	.	16gg\	.	16gg\	.
8A\J	.	8f#\J	.	16ff#\	.	16ff#\	.	.	.	.	.	8r	.	8r	.	16ff#\	.	16ff#\	.
.	.	.	.	16ee\JJ	.	16ee\JJ	.	.	.	.	.	.	.	.	.	16ee\JJ	.	16ee\JJ	.
=95	=95	=95	=95	=95	=95	=95	=95	=95	=95	=95	=95	=95	=95	=95	=95	=95	=95	=95	=95
8B\L	.	8f#\L	.	16dd\LL	.	16dd\LL	.	.	.	.	.	8r	.	8r	.	16dd\LL	.	16dd\LL	.
.	.	.	.	16ff#\	.	16ff#\	.	.	.	.	.	.	.	.	.	16ff#\	.	16ff#\	.
8G\	.	8g\	.	16bb\	.	16bb\	.	.	.	.	.	8d/L	.	8d\L	.	16bb\	.	16bb\	.
.	.	.	.	16b\	.	16b\	.	.	.	.	.	.	.	.	.	16b\	.	16b\	.
8A\J	.	8e\J	.	16dd\	.	16dd\	.	.	.	.	.	8A/J	.	8A\J	.	16dd\	.	16dd\	.
.	.	.	.	16cc#\JJ	.	16cc#\JJ	.	.	.	.	.	.	.	.	.	16cc#\JJ	.	16cc#\JJ	.
=96	=96	=96	=96	=96	=96	=96	=96	=96	=96	=96	=96	=96	=96	=96	=96	=96	=96	=96	=96
8D\L	.	8f#\L	.	4dd\	.	4dd\	.	.	.	.	.	4F#/	.	4d\	.	4dd\	.	4dd\	.
8F#\	.	8a\	.	.	.	.	.	.	.	.	.	.	.	.	.	.	.	.	.
8D\J	.	8f#\J	.	8ddd\	.	8ddd\	.	.	.	.	.	8r	.	8r	.	8r	.	8r	.
=97	=97	=97	=97	=97	=97	=97	=97	=97	=97	=97	=97	=97	=97	=97	=97	=97	=97	=97	=97
8G\L	.	8dd\L	.	32bb\LLL	.	(>32bb\LLL	.	8r	.	8r	.	4D/	.	4d\	.	4.bb\	.	4.bb\	.
.	.	.	.	32ccc#\JJ	.	32ccc#\JJ	.	.	.	.	.	.	.	.	.	.	.	.	.
.	.	.	.	8.ddd\J	.	8.ddd\J)	.	.	.	.	.	.	.	.	.	.	.	.	.
8B\	.	8dd\	.	.	.	.	.	8d/L	.	8dd\L	.	.	.	.	.	.	.	.	.
8G\J	.	8dd\J	.	8bb\	.	8bb\	.	8d/J	.	8dd\J	.	8r	.	8r	.	.	.	.	.
!	!	!	!	!LO:LB:g=original	!	!	!	!LO:LB:g=original	!	!	!	!	!	!	!	!	!	!	!
=98	=98	=98	=98	=98	=98	=98	=98	=98	=98	=98	=98	=98	=98	=98	=98	=98	=98	=98	=98
8F#\L	.	4d\	.	16aa\LL	.	16aa\LL	.	4d/	.	4dd\	.	4.r	.	4.r	.	8aa\L	.	8aa\L	.
.	.	.	.	16bb\	.	16bb\	.	.	.	.	.	.	.	.	.	.	.	.	.
8E\	.	.	.	16gg\	.	16gg\	.	.	.	.	.	.	.	.	.	8gg\	.	8gg\	.
.	.	.	.	16aa\J	.	16aa\J	.	.	.	.	.	.	.	.	.	.	.	.	.
8D\J	.	8r	.	8gg\J	.	8ff#\J	.	8r	.	8r	.	.	.	.	.	8ff#\J	.	8ff#\J	.
=99	=99	=99	=99	=99	=99	=99	=99	=99	=99	=99	=99	=99	=99	=99	=99	=99	=99	=99	=99
8G\L	.	8dd\L	.	32bb\LLL	.	(>32bb\LLL	.	8r	.	8r	.	4D/	.	4d\	.	4.bb\	.	4.bb\	.
.	.	.	.	32ccc#\JJ	.	32ccc#\JJ	.	.	.	.	.	.	.	.	.	.	.	.	.
.	.	.	.	8.ddd\J	.	8.ddd\J)	.	.	.	.	.	.	.	.	.	.	.	.	.
8B\	.	8dd\	.	.	.	.	.	8d/L	.	8dd\L	.	.	.	.	.	.	.	.	.
8G\J	.	8dd\J	.	8bb\	.	8bb\	.	8d/J	.	8dd\J	.	8r	.	8r	.	.	.	.	.
!	!	!	!	!	!	!LO:LB:g=original	!	!	!	!LO:LB:g=original	!	!	!	!	!	!	!	!	!
=100	=100	=100	=100	=100	=100	=100	=100	=100	=100	=100	=100	=100	=100	=100	=100	=100	=100	=100	=100
!	!	!	!	!	!	!	!	!	!	!	!	!LO:TX:a:t=2	!	!	!	!	!	!	!
!	!	!	!	!	!	!	!	!	!	!	!	!LO:N:vis=0	!	!LO:N:vis=0	!	!	!	!	!
8F#\L	.	4d\	.	16aa\LL	.	16aa\LL	.	4d/	.	4dd\	.	2.r	.	2.r	.	8aa\L	.	8aa\L	.
.	.	.	.	16bb\	.	(>16bb\	.	.	.	.	.	.	.	.	.	.	.	.	.
8E\	.	.	.	16gg\	.	16gg\)	.	.	.	.	.	.	.	.	.	8gg\	.	8gg\	.
.	.	.	.	16aa\JJ	.	16aa\J	.	.	.	.	.	.	.	.	.	.	.	.	.
8D\J	.	8r	.	8gg\	.	8ff#\J	.	8r	.	8r	.	.	.	.	.	8ff#\J	.	8ff#\J	.
=101	=101	=101	=101	=101	=101	=101	=101	=101	=101	=101	=101	=101	=101	=101	=101	=101	=101	=101	=101
*	*	*tremolo	*	*	*	*	*	*	*	*	*	*	*	*	*	*	*	*	*
!	!	!	!	!LO:TX:a:t=P:znak początku repetycji:problem	!	!	!	!	!	!	!	!	!	!	!	!LO:TX:a:t=P:łuki ligaturowe i łuk legatowy poniżej główek nut:problem	!	!	!
4A\	.	16a\LL	.	8r	.	8r	.	8r	.	8r	.	.	.	.	.	[>4.a/	.	4.aa\	.
.	.	16a\	.	.	.	.	.	.	.	.	.	.	.	.	.	.	.	.	.
.	.	16a\	.	8cc#\L	.	8eeL 8a/	.	8a/L	.	8a/L	.	.	.	.	.	.	.	.	.
.	.	16a\	.	.	.	.	.	.	.	.	.	.	.	.	.	.	.	.	.
8r	.	16a\	.	8dd\J	.	8eeJ 8a/	.	8a/J	.	8a/J	.	.	.	.	.	.	.	.	.
.	.	16a\JJ	.	.	.	.	.	.	.	.	.	.	.	.	.	.	.	.	.
!	!	!	!	!LO:SIC:o=bis:v:t=z łukiem	!	!	!	!	!	!	!	!	!	!	!	!	!	!	!
=102	=102	=102	=102	=102	=102	=102	=102	=102	=102	=102	=102	=102	=102	=102	=102	=102	=102	=102	=102
8r	.	16a\LL	.	4ee\	.	4gg 4a/	.	4a/	.	4a/	.	8r	.	8r	.	4.a/_>	.	4.aa\	.
.	.	16a\	.	.	.	.	.	.	.	.	.	.	.	.	.	.	.	.	.
8c#\L	.	16a\	.	.	.	.	.	.	.	.	.	8A/L	.	8e\L	.	.	.	.	.
.	.	16a\	.	.	.	.	.	.	.	.	.	.	.	.	.	.	.	.	.
8d\J	.	16a\	.	8dd\	.	8ff#/	.	8r	.	8r	.	8d/J	.	8f#\J	.	.	.	.	.
.	.	16a\JJ	.	.	.	.	.	.	.	.	.	.	.	.	.	.	.	.	.
!	!	!	!	!LO:TX:a:t=P:znak końca repetycji:problem	!	!	!	!	!	!	!	!	!	!	!	!	!	!	!
!	!	!	!	!	!	!	!	!	!	!	!	!	!	!	!	!	!	!LO:LB:g=original	!
=103	=103	=103	=103	=103	=103	=103	=103	=103	=103	=103	=103	=103	=103	=103	=103	=103	=103	=103	=103
*	*	*	*	*rep	*	*	*	*	*	*	*	*	*	*	*	*	*	*	*
!	!	!	!	!LO:TX:a:t=P:powtórzenie taktów oznaczone znakami repetycji:problem	!	!	!	!	!	!	!	!	!	!	!	!	!	!	!
4A\	.	16a\LL	.	8r	.	8ee/L	.	8r	.	8r	.	4A/	.	4e\	.	4.a/_>	.	4.aa\	.
.	.	16a\	.	.	.	.	.	.	.	.	.	.	.	.	.	.	.	.	.
.	.	16a\	.	8cc#\L	.	8ee 8a/	.	8a/L	.	8a/L	.	.	.	.	.	.	.	.	.
.	.	16a\	.	.	.	.	.	.	.	.	.	.	.	.	.	.	.	.	.
8r	.	16a\	.	8dd\J	.	8ff#J 8a/	.	8a/J	.	8a/J	.	8r	.	8r	.	.	.	.	.
.	.	16a\JJ	.	.	.	.	.	.	.	.	.	.	.	.	.	.	.	.	.
=104	=104	=104	=104	=104	=104	=104	=104	=104	=104	=104	=104	=104	=104	=104	=104	=104	=104	=104	=104
!LO:TX:a:t=P:problem:pominięty fragment	!	!	!	!	!	!	!	!	!	!	!	!	!	!	!	!	!	!	!
4.ryy	.	16a\LL	.	4ee\	.	4gg 4a/	.	4a/	.	4a/	.	8r	.	8r	.	4.a/_>	.	4.aa\	.
.	.	16a\	.	.	.	.	.	.	.	.	.	.	.	.	.	.	.	.	.
.	.	16a\	.	.	.	.	.	.	.	.	.	8A/L	.	8e\L	.	.	.	.	.
.	.	16a\	.	.	.	.	.	.	.	.	.	.	.	.	.	.	.	.	.
.	.	16a\	.	8dd\	.	8ff#\	.	8r	.	8r	.	8d/J	.	8f#\J	.	.	.	.	.
.	.	16a\JJ	.	.	.	.	.	.	.	.	.	.	.	.	.	.	.	.	.
*	*	*	*	*Xrep	*	*	*	*	*	*	*	*	*	*	*	*	*	*	*
*	*	*Xtremolo	*	*	*	*	*	*	*	*	*	*	*	*	*	*	*	*	*
=105	=105	=105	=105	=105	=105	=105	=105	=105	=105	=105	=105	=105	=105	=105	=105	=105	=105	=105	=105
4.ryy	.	8a\L	.	8cc#\L	.	8ee\L	.	8r	.	8r	.	4A/	.	4e\	.	(>4.a/]	.	4.aa\	.
.	.	8a\	.	8cc#\	.	8ee\	.	8a/L	.	8a/L	.	.	.	.	.	.	.	.	.
.	.	8dd\J	.	8dd\J	.	8ff#\J	.	8a/J	.	8a/J	.	8r	.	8r	.	.	.	.	.
!	!	!	!	!	!	!	!	!	!	!	!	!	!	!	!	!LO:LB:g=original	!	!	!
=106	=106	=106	=106	=106	=106	=106	=106	=106	=106	=106	=106	=106	=106	=106	=106	=106	=106	=106	=106
!	!	!	!	!	!	!	!	!	!	!	!	!	!	!	!	!LO:TX:a:t=P:w źródle brak zakończenia łuku:problem	!	!	!
4.ryy	.	4.cc#\	.	4.ee\	.	4.gg\	.	4a/	.	4a/	.	4A/	.	4e\	.	4.ee\)	.	4.gg\	.
.	.	.	.	.	.	.	.	8r	.	8r	.	8r	.	8r	.	.	.	.	.
!	!	!LO:LB:g=original	!	!	!	!	!	!	!	!	!	!	!	!	!	!	!	!	!
=107	=107	=107	=107	=107	=107	=107	=107	=107	=107	=107	=107	=107	=107	=107	=107	=107	=107	=107	=107
4.ryy	.	8dd\L	.	4.dd\	.	4.ff#\	.	4dd\	.	4dd\	.	8r	.	8r	.	[>4.dd\	.	4.ff#\	.
.	.	8a\	.	.	.	.	.	.	.	.	.	8d\L	.	8f#\L	.	.	.	.	.
.	.	8a\J	.	.	.	.	.	8r	.	8r	.	8d\J	.	8f#\J	.	.	.	.	.
=108	=108	=108	=108	=108	=108	=108	=108	=108	=108	=108	=108	=108	=108	=108	=108	=108	=108	=108	=108
8r	.	4b\	.	4dd\	.	4.ee\	.	4ee\	.	4ee\	.	4e\	.	4e\	.	4dd\]	.	4.ee\	.
8A\L	.	.	.	.	.	.	.	.	.	.	.	.	.	.	.	.	.	.	.
8A#X\J	.	8a\	.	8cc#\	.	.	.	8r	.	8r	.	8A/	.	8e\	.	8cc#\	.	.	.
!	!	!	!	!	!	!	!	!	!	!	!	!	!	!LO:LB:g=original	!	!	!	!	!
=109	=109	=109	=109	=109	=109	=109	=109	=109	=109	=109	=109	=109	=109	=109	=109	=109	=109	=109	=109
8B\L	.	8f#\L	.	4dd\	.	4dd\	.	4dd\	.	4dd\	.	8F#/L	.	8d\L	.	4dd\	.	4dd\	.
8d\	.	8a\	.	.	.	.	.	.	.	.	.	8F#/	.	8d\	.	.	.	.	.
8F#\J	.	8f#\J	.	8r	.	8r	.	8r	.	8r	.	8F#/J	.	8d\J	.	8r	.	8r	.
!LO:LB:g=original	!	!	!	!	!	!	!	!	!	!	!	!	!	!	!	!	!	!	!
=110	=110	=110	=110	=110	=110	=110	=110	=110	=110	=110	=110	=110	=110	=110	=110	=110	=110	=110	=110
*	*	*tremolo	*	*	*	*	*	*	*	*	*	*	*	*	*	*	*	*	*
!	!	!	!	!	!	!	!	!	!	!	!	!	!	!	!	!	!LO:DY:b:rj	!	!LO:DY:b:rj
8G\L	.	16a\LL	p	8r	.	8r	.	8r	.	8r	p	4A/	.	4e\	.	4.a/	p	[<4.a/	p
.	.	16a\	.	.	.	.	.	.	.	.	.	.	.	.	.	.	.	.	.
8E\	.	16a\	.	8cc#\L	p	8ee\L	p	8a/L	p	8aa\L	.	.	.	.	.	.	.	.	.
.	.	16a\	.	.	.	.	.	.	.	.	.	.	.	.	.	.	.	.	.
8A\J	.	16a\	.	8dd\J	.	8ff#\J	.	8a/J	.	8aa\J	.	8r	.	8r	.	.	.	.	.
.	.	16a\JJ	.	.	.	.	.	.	.	.	.	.	.	.	.	.	.	.	.
!	!	!	!	!	!	!	!	!	!	!	!	!LO:LB:g=original	!	!	!	!	!	!	!
=111	=111	=111	=111	=111	=111	=111	=111	=111	=111	=111	=111	=111	=111	=111	=111	=111	=111	=111	=111
!	!	!	!	!	!	!	!	!	!	!	!	!	!LO:DY:b:t=%s:rj	!	!LO:DY:b:rj	!	!	!	!
8D\L	.	16a\LL	.	4ee\	.	4gg\	.	4a/	.	4aa\	.	8r	p	8r	p	4.a/	.	4.a/_<	.
.	.	16a\	.	.	.	.	.	.	.	.	.	.	.	.	.	.	.	.	.
8F#\	.	16a\	.	.	.	.	.	.	.	.	.	8A/L	.	8e\L	.	.	.	.	.
.	.	16a\	.	.	.	.	.	.	.	.	.	.	.	.	.	.	.	.	.
8D\J	.	16a\	.	8dd\	.	8ff#\	.	8r	.	8r	.	8d/J	.	8f#\J	.	.	.	.	.
.	.	16a\JJ	.	.	.	.	.	.	.	.	.	.	.	.	.	.	.	.	.
!	!	!	!	!LO:LB:g=original	!	!LO:LB:g=original	!	!	!	!	!	!	!	!	!	!	!	!	!
=112	=112	=112	=112	=112	=112	=112	=112	=112	=112	=112	=112	=112	=112	=112	=112	=112	=112	=112	=112
4A\	.	16a\LL	.	8cc#\L	.	8ee\L	.	8r	.	8r	.	4A/	.	4e\	.	4.a/	.	4.a/_<	.
.	.	16a\	.	.	.	.	.	.	.	.	.	.	.	.	.	.	.	.	.
.	.	16a\	.	8cc#\	.	8ee\	.	8a/L	.	8aa\L	.	.	.	.	.	.	.	.	.
.	.	16a\	.	.	.	.	.	.	.	.	.	.	.	.	.	.	.	.	.
8r	.	16a\	.	8dd\J	.	8ff#\J	.	8a/J	.	8aa\J	.	8r	.	8r	.	.	.	.	.
.	.	16a\JJ	.	.	.	.	.	.	.	.	.	.	.	.	.	.	.	.	.
=113	=113	=113	=113	=113	=113	=113	=113	=113	=113	=113	=113	=113	=113	=113	=113	=113	=113	=113	=113
8r	.	16a\LL	.	4ee\	.	4gg\	.	4a/	.	4aa\	.	8r	.	8r	.	4.a/	.	4.a/_<	.
.	.	16a\	.	.	.	.	.	.	.	.	.	.	.	.	.	.	.	.	.
!	!LO:DY:b:t=%sa	!	!	!	!	!	!	!	!	!	!	!	!	!	!	!	!	!	!
8c#\L	p	16a\	.	.	.	.	.	.	.	.	.	8A/L	.	8e\L	.	.	.	.	.
.	.	16a\	.	.	.	.	.	.	.	.	.	.	.	.	.	.	.	.	.
8d\J	.	16a\	.	8dd\	.	8ff#\	.	8r	.	8r	.	8d/J	.	8f#\J	.	.	.	.	.
.	.	16a\JJ	.	.	.	.	.	.	.	.	.	.	.	.	.	.	.	.	.
*	*	*Xtremolo	*	*	*	*	*	*	*	*	*	*	*	*	*	*	*	*	*
=114	=114	=114	=114	=114	=114	=114	=114	=114	=114	=114	=114	=114	=114	=114	=114	=114	=114	=114	=114
!	!	!	!	!	!	!	!	!	!	!	!	!	!	!	!	!	!	!LO:TX:a:t=P:mixed beam:problem	!
!	!	!	!	!	!LO:DY:b:rj	!	!LO:DY:b:rj	!	!	!	!	!	!	!	!	!	!LO:DY:b:rj	!	!LO:DY:b:rj
4A\	.	8a\L	.	8cc#\L	f	8ee\L	f	8r	.	8r	.	4A/	.	4e\	.	8a\L	f	8a/L]	f
.	.	8a\	.	8cc#\	.	8ee\	.	8a/L	.	8aa\L	.	.	.	.	.	8cc#\	.	8ee\	.
8r	.	8dd\J	.	8dd\J	.	8ff#\J	.	8a/J	.	8aa\J	.	8r	.	8r	.	8dd\J	.	8ff#\J	.
!	!	!	!	!	!	!	!	!LO:LB:g=original	!	!	!	!	!	!	!	!	!	!	!
=115	=115	=115	=115	=115	=115	=115	=115	=115	=115	=115	=115	=115	=115	=115	=115	=115	=115	=115	=115
8r	.	4.cc#\	f	4.ee\	.	4.gg\	.	4a/	.	4aa\	.	8r	f	8r	.	4.ee\	.	4.gg\	.
8c#\L	.	.	.	.	.	.	.	.	.	.	.	8e\L	.	8e\L	f	.	.	.	.
8d\J	.	.	.	.	.	.	.	8r	.	8r	.	8e\J	.	8e\J	.	.	.	.	.
=116	=116	=116	=116	=116	=116	=116	=116	=116	=116	=116	=116	=116	=116	=116	=116	=116	=116	=116	=116
*	*	*	*	*tremolo	*	*	*	*	*	*	*	*	*	*	*	*	*	*	*
!	!	!	!	!	!	!	!	!	!LO:DY:b:rj	!	!LO:DY:b:rj	!	!	!	!	!	!	!	!
4A\	.	8dd\L	.	16dd\LL	.	4.ff#\	.	4dd\	f	4ff#\	f	4d\	.	4d\	.	4.dd\	.	4.ff#\	.
.	.	.	.	16dd\	.	.	.	.	.	.	.	.	.	.	.	.	.	.	.
.	.	8a\	.	16dd\	.	.	.	.	.	.	.	.	.	.	.	.	.	.	.
.	.	.	.	16dd\	.	.	.	.	.	.	.	.	.	.	.	.	.	.	.
8r	.	8a\J	.	16dd\	.	.	.	8r	.	8r	.	8d\	.	8f#\	.	.	.	.	.
.	.	.	.	16dd\JJ	.	.	.	.	.	.	.	.	.	.	.	.	.	.	.
!	!	!	!	!	!	!	!	!	!	!LO:LB:g=original	!	!	!	!	!	!	!	!	!
=117	=117	=117	=117	=117	=117	=117	=117	=117	=117	=117	=117	=117	=117	=117	=117	=117	=117	=117	=117
8r	f	4b\	.	16dd\LL	.	4.ee\	.	4.ee\	.	4.ee\	.	4e\	.	4e\	.	4dd\	.	4.ee\	.
.	.	.	.	16dd\	.	.	.	.	.	.	.	.	.	.	.	.	.	.	.
8A\L	.	.	.	16dd\	.	.	.	.	.	.	.	.	.	.	.	.	.	.	.
.	.	.	.	16dd\JJ	.	.	.	.	.	.	.	.	.	.	.	.	.	.	.
*	*	*	*	*Xtremolo	*	*	*	*	*	*	*	*	*	*	*	*	*	*	*
8A#X\J	.	8a\	.	16cc#\LL	.	.	.	.	.	.	.	8A/	.	8e\	.	8cc#\	.	.	.
.	.	.	.	16cc#\JJ	.	.	.	.	.	.	.	.	.	.	.	.	.	.	.
=118	=118	=118	=118	=118	=118	=118	=118	=118	=118	=118	=118	=118	=118	=118	=118	=118	=118	=118	=118
!	!	!	!	!	!	!	!	!	!	!	!	!	!	!	!	!LO:TX:a:t=P:mixed beam:problem	!	!	!
8B\L	.	8f#\L	.	8dd/L	.	8dd/L	.	4dd\	.	4dd\	.	4F#/	.	4d\	.	8dd\L	.	8dd/L	.
8d\	.	16a\L	.	16a/L	.	16a/L	.	.	.	.	.	.	.	.	.	16a/L	.	16a/L	.
.	.	16g\	.	16g/	.	16g/	.	.	.	.	.	.	.	.	.	16g/	.	16g/	.
8F#\J	.	16f#\	.	16f#/	.	16f#/	.	8r	.	8r	.	8r	.	8r	.	16f#/	.	16f#/	.
.	.	16e\JJ	.	16e/JJ	.	16e/JJ	.	.	.	.	.	.	.	.	.	16e/JJ	.	16e/JJ	.
=119	=119	=119	=119	=119	=119	=119	=119	=119	=119	=119	=119	=119	=119	=119	=119	=119	=119	=119	=119
!	!	!	!	!LO:TX:a:t=P:mixed beam:problem	!	!LO:TX:a:t=P:mixed beam:problem	!	!	!	!	!	!	!	!	!	!LO:TX:a:t=P:mixed beam:problem	!	!LO:TX:a:t=P:mixed beam:problem	!
8G\L	.	4d\	.	8d/L	.	8d/L	.	8r	.	8r	.	8r	.	8r	.	8d/L	.	8d/L	.
8E\	.	.	.	8dd\	.	8ff#\	.	8f#/L	.	8dd\L	.	8d\L	.	8f#\L	.	8dd\	.	8ff#\	.
8A\J	.	8d\	.	8dd\J	.	8ff#\J	.	8f#/J	.	8dd\J	.	8d\J	.	8f#\J	.	8dd\J	.	8ff#\J	.
!	!	!	!	!	!	!	!	!	!	!	!	!	!	!	!	!LO:LB:g=original	!	!LO:LB:g=original	!
=120	=120	=120	=120	=120	=120	=120	=120	=120	=120	=120	=120	=120	=120	=120	=120	=120	=120	=120	=120
!	!	!	!	!	!	!LO:TX:a:t=P:mixed beam:problem	!	!	!	!	!	!	!	!	!	!	!	!LO:TX:a:t=P:mixed beam:problem	!
4D\	.	8d\L	.	8dd/L	.	8ff#\L	.	4f#/	.	4dd\	.	4d\	.	4f#\	.	8dd/L	.	8ff#\L	.
.	.	16a\L	.	16a/L	.	16a/L	.	.	.	.	.	.	.	.	.	16a/L	.	16a/L	.
.	.	16g\JJ	.	16g/	.	16g/	.	.	.	.	.	.	.	.	.	16g/	.	16g/	.
!	!	!LO:LB:g=original	!	!	!	!	!	!	!	!	!	!	!	!	!	!	!	!	!
8D\	.	16f#\LL	.	16f#/	.	16f#/	.	8r	.	8r	.	8r	.	8r	.	16f#/	.	16f#/	.
.	.	16e\JJ	.	16e/JJ	.	16e/JJ	.	.	.	.	.	.	.	.	.	16e/JJ	.	16e/JJ	.
=121	=121	=121	=121	=121	=121	=121	=121	=121	=121	=121	=121	=121	=121	=121	=121	=121	=121	=121	=121
!	!	!	!	!LO:TX:a:t=P:mixed beam:problem	!	!LO:TX:a:t=P:mixed beam:problem	!	!	!	!	!	!	!	!	!	!LO:TX:a:t=P:mixed beam:problem	!	!LO:TX:a:t=P:mixed beam:problem	!
8D\L	.	4d\	.	8d/L	.	8d/L	.	8r	.	8r	.	8r	.	8r	.	8d/L	.	8d/L	.
16A\L	.	.	.	8ff#\	.	8aa\	.	8dd\L	.	8ff#\L	.	8f#\L	.	8a\L	.	8ff#\	.	8aa\	.
16G\	.	.	.	.	.	.	.	.	.	.	.	.	.	.	.	.	.	.	.
16F#\	.	8d\	.	8ff#\J	.	8aa\J	.	8dd\J	.	8ff#\J	.	8f#\J	.	8a\J	.	8ff#\J	.	8aa\J	.
16E\JJ	.	.	.	.	.	.	.	.	.	.	.	.	.	.	.	.	.	.	.
!LO:LB:g=original	!	!	!	!LO:LB:g=original	!	!	!	!	!	!	!	!	!	!	!	!	!	!	!
=122	=122	=122	=122	=122	=122	=122	=122	=122	=122	=122	=122	=122	=122	=122	=122	=122	=122	=122	=122
!	!	!	!	!LO:TX:a:t=P:mixed beam:problem	!	!LO:TX:a:t=P:mixed beam:problem	!	!	!	!	!	!	!	!	!	!LO:TX:a:t=P:mixed beam:problem	!	!LO:TX:a:t=P:mixed beam:problem	!
8D\L	.	8d\L	.	8ff#\L	.	8aa\L	.	4dd\	.	4ff#\	.	4f#\	.	4a\	.	8ff#\L	.	8aa\L	.
16A\L	.	16a\L	.	16a/L	.	16a/L	.	.	.	.	.	.	.	.	.	16a/L	.	16a/L	.
16G\	.	16g\	.	16g/	.	16g/	.	.	.	.	.	.	.	.	.	16g/	.	16g/	.
16F#\	.	16f#\	.	16f#/	.	16f#/	.	8r	.	8r	.	8r	.	8r	.	16f#/	.	16f#/	.
16E\JJ	.	16e\JJ	.	16e/JJ	.	16e/JJ	.	.	.	.	.	.	.	.	.	16e/JJ	.	16e/JJ	.
!	!	!	!	!	!	!LO:LB:g=original	!	!	!	!	!	!	!	!	!	!	!	!	!
=123	=123	=123	=123	=123	=123	=123	=123	=123	=123	=123	=123	=123	=123	=123	=123	=123	=123	=123	=123
!	!	!	!	!LO:TX:a:t=P:mixed beam:problem	!	!LO:TX:a:t=P:mixed beam:problem	!	!	!	!	!	!	!	!	!	!LO:TX:a:t=P:mixed beam:problem	!	!LO:TX:a:t=P:mixed beam:problem	!
4D\	.	4d\	.	8d/L	.	8d/L	.	8r	.	8r	.	8r	.	8r	.	8d/L	.	8d/L	.
.	.	.	.	8ff#\	.	8ddd\	.	8f#/L	.	8dd\L	.	8d\L	.	8f#\L	.	8ff#\	.	8ddd\	.
8D\	.	8d\	.	8ff#\J	.	8ddd\J	.	8f#/J	.	8dd\J	.	8d\J	.	8f#\J	.	8ff#\J	.	8ddd\J	.
=124	=124	=124	=124	=124	=124	=124	=124	=124	=124	=124	=124	=124	=124	=124	=124	=124	=124	=124	=124
8D\L	.	8d\L	.	4ff# 4a 4d/	.	4ddd 4ff# 4d/	.	4f#/	.	4dd\	.	4d\	.	4f#\	.	4ff#\	.	4ddd\	.
8F#\	.	8f#\	.	.	.	.	.	.	.	.	.	.	.	.	.	.	.	.	.
8A\J	.	8a\J	.	8r	.	8r	.	8r	.	8r	.	8r	.	8r	.	8r	.	8r	.
=125	=125	=125	=125	=125	=125	=125	=125	=125	=125	=125	=125	=125	=125	=125	=125	=125	=125	=125	=125
8D/L	.	8d/L	.	4ff# 4a 4d/	.	4ddd 4ff# 4d/	.	8f#/L	.	8dd/L	.	4d\	.	4f#\	.	4ff#\	.	4aa\	.
8AA/	.	8A/	.	.	.	.	.	8a/	.	8a/	.	.	.	.	.	.	.	.	.
8FF#/J	.	8F#/J	.	8r	.	8r	.	8f#/J	.	8f#/J	.	8r	.	8r	.	8r	.	8r	.
=126	=126	=126	=126	=126	=126	=126	=126	=126	=126	=126	=126	=126	=126	=126	=126	=126	=126	=126	=126
4DD/	.	4D/	.	4ff# 4a 4d/	.	4ddd 4ff# 4d/	.	4d/	.	4d/	.	4d\	.	4f#\	.	4dd\	.	4ff#\	.
8r	.	8r	.	8r	.	8r	.	8r	.	8r	.	8r	.	8r	.	8r	.	8r	.
!LO:TX:a:Bi:t=Fine	!	!LO:TX:a:Bi:t=Fine	!	!LO:TX:a:Bi:t=Fine	!	!LO:TX:a:Bi:t=Fine	!	!LO:TX:a:Bi:t=Fine	!	!LO:TX:a:Bi:t=Fine	!	!LO:TX:a:Bi:t=Fine	!	!LO:TX:a:Bi:t=Fine	!	!LO:TX:a:Bi:t=Fine	!	!LO:TX:a:Bi:t=Fine	!
==	==	==	==	==	==	==	==	==	==	==	==	==	==	==	==	==	==	==	==
*-	*-	*-	*-	*-	*-	*-	*-	*-	*-	*-	*-	*-	*-	*-	*-	*-	*-	*-	*-
!!title: @{OTL};
!!!RDF**kern: > = above
!!!RDF**kern: < = below
!!!RDF**dynam: f = "for", fontstyle="normal"
!!!RDF**dynam: p = "pia", fontstyle="normal"
!!!EED: Wojciech Jakubiak-Danek
!!!EST: 2020-10-18
!!!URL-scan: http://bc.bdsandomierz.pl/dlibra/publication/1273/edition/1241/content
!!!ONB-nifc: UWAGA: części Synphonii: Allegro, Andante, Presto. UWAGA: "Tuba 1ma" and "tuba 2da" on the title page. In this case it means tuba marina, called also tromba marina, instrument that was used as substituition for trumpets.
!!!ENC: Kamil Watkowski
!!!END: 2020-05-22
